;FLAVOR:Marlin
;TIME:12095
;Filament used: 10.4391m
;Layer height: 0.2
;MINX:41.618
;MINY:65.799
;MINZ:0.2
;MAXX:193.38
;MAXY:179.209
;MAXZ:10
;Generated with Cura_SteamEngine 5.0.0
M140 S50
M105
M190 S50
M104 S200
M105
M109 S200
M82 ;absolute extrusion mode
; Ender 3 Custom Start G-code
G92 E0 ; Reset Extruder
G28 ; Home all axes
G1 Z2.0 F3000 ; Move Z Axis up little to prevent scratching of Heat Bed
G1 X0.1 Y20 Z0.3 F5000.0 ; Move to start position
G1 X0.1 Y200.0 Z0.3 F1500.0 E15 ; Draw the first line
G1 X0.4 Y200.0 Z0.3 F5000.0 ; Move to side a little
G1 X0.4 Y20 Z0.3 F1500.0 E30 ; Draw the second line
G92 E0 ; Reset Extruder
G1 Z2.0 F3000 ; Move Z Axis up little to prevent scratching of Heat Bed
G1 X5 Y20 Z0.3 F5000.0 ; Move over to prevent blob squish
G92 E0
G92 E0
G1 F2700 E-5
;LAYER_COUNT:50
;LAYER:0
M107
G0 F6000 X64.623 Y82.974 Z0.2
G0 X59.225 Y87.653
;TYPE:SKIRT
G1 F2700 E0
G1 F1200 X59.514 Y87.376 E0.01331
G1 X60.922 Y86.074 E0.0771
G1 X61.202 Y85.824 E0.08958
G1 X62.753 Y84.485 E0.15773
G1 X63.053 Y84.235 E0.17072
G1 X64.623 Y82.974 E0.2377
G1 X64.925 Y82.74 E0.25041
G1 X66.852 Y81.305 E0.33032
G1 X68.356 Y80.252 E0.39138
G1 X68.907 Y79.88 E0.41349
G1 X70.366 Y78.928 E0.47144
G1 X70.921 Y78.579 E0.49324
G1 X72.441 Y77.656 E0.55239
G1 X73.082 Y77.28 E0.57711
G1 X74.51 Y76.474 E0.63164
G1 X75.171 Y76.114 E0.65668
G1 X76.739 Y75.292 E0.71556
G1 X77.384 Y74.968 E0.73957
G1 X78.898 Y74.232 E0.79556
G1 X79.65 Y73.881 E0.82316
G1 X81.139 Y73.213 E0.87744
G1 X81.959 Y72.861 E0.90712
G1 X83.382 Y72.273 E0.95833
G1 X84.223 Y71.939 E0.98843
G1 X85.805 Y71.34 E1.04469
G1 X86.619 Y71.046 E1.07348
G1 X88.09 Y70.536 E1.12526
G1 X88.979 Y70.243 E1.15639
G1 X90.545 Y69.751 E1.21099
G1 X91.402 Y69.495 E1.24074
G1 X92.939 Y69.06 E1.29387
G1 X93.794 Y68.831 E1.32331
G1 X95.409 Y68.423 E1.37871
G1 X96.353 Y68.199 E1.41098
G1 X97.801 Y67.875 E1.46033
G1 X98.776 Y67.671 E1.49346
G1 X100.353 Y67.365 E1.54689
G1 X101.439 Y67.17 E1.58359
G1 X102.793 Y66.946 E1.62923
G1 X103.862 Y66.784 E1.6652
G1 X105.333 Y66.581 E1.71459
G1 X106.431 Y66.446 E1.75138
G1 X107.905 Y66.284 E1.8007
G1 X108.95 Y66.183 E1.83562
G1 X110.391 Y66.064 E1.88371
G1 X111.456 Y65.99 E1.91922
G1 X113.058 Y65.901 E1.97258
G1 X114.186 Y65.856 E2.01013
G1 X115.515 Y65.818 E2.05435
G1 X116.618 Y65.802 E2.09104
G1 X117.998 Y65.799 E2.13694
G1 X119.23 Y65.813 E2.17792
G1 X120.702 Y65.851 E2.22689
G1 X121.773 Y65.893 E2.26254
G1 X123.199 Y65.967 E2.31004
G1 X124.323 Y66.042 E2.3475
G1 X125.89 Y66.169 E2.39979
G1 X126.954 Y66.271 E2.43534
G1 X128.379 Y66.424 E2.48301
G1 X129.409 Y66.549 E2.51752
G1 X130.873 Y66.746 E2.56665
G1 X131.974 Y66.909 E2.60367
G1 X133.487 Y67.156 E2.65466
G1 X134.477 Y67.333 E2.68811
G1 X135.983 Y67.622 E2.73911
G1 X136.931 Y67.817 E2.7713
G1 X138.454 Y68.152 E2.82317
G1 X139.419 Y68.381 E2.85616
G1 X140.953 Y68.765 E2.90875
G1 X141.845 Y69.002 E2.93945
G1 X143.405 Y69.439 E2.99333
G1 X144.269 Y69.695 E3.02331
G1 X145.842 Y70.185 E3.0781
G1 X146.663 Y70.454 E3.10684
G1 X148.223 Y70.99 E3.1617
G1 X149.039 Y71.283 E3.19054
G1 X150.52 Y71.84 E3.24316
G1 X151.38 Y72.178 E3.2739
G1 X152.864 Y72.786 E3.32724
G1 X153.629 Y73.113 E3.35491
G1 X155.201 Y73.813 E3.41214
G1 X155.875 Y74.126 E3.43686
G1 X157.467 Y74.894 E3.49565
G1 X158.142 Y75.233 E3.52077
G1 X159.631 Y76.008 E3.5766
G1 X160.32 Y76.382 E3.60268
G1 X161.744 Y77.181 E3.65699
G1 X162.388 Y77.556 E3.68177
G1 X163.913 Y78.477 E3.74103
G1 X164.494 Y78.841 E3.76383
G1 X166.066 Y79.863 E3.82619
G1 X167.992 Y81.193 E3.90404
G1 X168.499 Y81.56 E3.92486
G1 X170.067 Y82.735 E3.99003
G1 X171.942 Y84.232 E4.06983
G1 X172.241 Y84.48 E4.08275
G1 X173.727 Y85.761 E4.148
G1 X174.005 Y86.009 E4.1604
G1 X175.442 Y87.335 E4.22543
G1 X175.726 Y87.606 E4.23849
G1 X177.085 Y88.953 E4.30213
G1 X178.662 Y90.62 E4.37845
G1 X178.937 Y90.923 E4.39206
G1 X180.192 Y92.36 E4.45552
G1 X180.456 Y92.674 E4.46916
G1 X181.677 Y94.182 E4.5337
G1 X181.934 Y94.513 E4.54763
G1 X183.047 Y96 E4.60941
G1 X183.307 Y96.362 E4.62424
G1 X184.387 Y97.934 E4.68767
G1 X184.623 Y98.291 E4.70191
G1 X185.611 Y99.856 E4.76346
G1 X185.841 Y100.238 E4.77829
G1 X186.755 Y101.825 E4.8392
G1 X186.971 Y102.218 E4.85412
G1 X187.827 Y103.855 E4.91556
G1 X188.037 Y104.28 E4.93133
G1 X188.89 Y106.098 E4.99812
G1 X189.047 Y106.447 E5.01085
G1 X189.587 Y107.721 E5.05687
G1 X189.815 Y108.303 E5.07766
G1 X190.563 Y110.322 E5.14927
G1 X190.693 Y110.693 E5.16235
G1 X191.113 Y111.982 E5.20744
G1 X191.373 Y112.858 E5.23783
G1 X191.738 Y114.168 E5.28306
G1 X191.962 Y115.071 E5.31401
G1 X192.28 Y116.461 E5.36143
G1 X192.451 Y117.309 E5.3902
G1 X192.692 Y118.623 E5.43464
G1 X192.824 Y119.467 E5.46305
G1 X193.01 Y120.803 E5.50791
G1 X193.111 Y121.719 E5.53857
G1 X193.236 Y123.062 E5.58343
G1 X193.298 Y124.032 E5.61575
G1 X193.361 Y125.525 E5.66546
G1 X193.38 Y127.082 E5.71725
G1 X193.36 Y128.256 E5.7563
G1 X193.282 Y129.996 E5.81423
G1 X193.227 Y130.751 E5.83941
G1 X193.123 Y131.919 E5.87841
G1 X193.08 Y132.319 E5.89179
G1 X192.874 Y133.953 E5.94657
G1 X192.804 Y134.422 E5.96234
G1 X192.521 Y136.085 E6.01845
G1 X192.292 Y137.227 E6.05719
G1 X191.953 Y138.724 E6.10824
G1 X191.729 Y139.604 E6.13844
G1 X191.364 Y140.933 E6.18428
G1 X191.099 Y141.803 E6.21453
G1 X190.737 Y142.929 E6.25387
G1 X190.573 Y143.402 E6.27052
G1 X189.736 Y145.649 E6.35027
G1 X189.585 Y146.032 E6.36396
G1 X189.04 Y147.327 E6.41069
G1 X188.771 Y147.916 E6.43223
G1 X187.93 Y149.685 E6.49738
G1 X187.72 Y150.105 E6.51299
G1 X186.33 Y152.732 E6.61185
G1 X185.171 Y155.01 E6.69686
G1 X184.084 Y157.298 E6.78111
G1 X183.057 Y159.634 E6.86598
G1 X182.121 Y161.936 E6.94863
G1 X181.234 Y164.307 E7.03283
G1 X180.422 Y166.678 E7.11618
G1 X179.67 Y169.099 E7.2005
G1 X179.07 Y171.209 E7.27346
G1 X178.775 Y172.099 E7.30465
G1 X178.405 Y172.961 E7.33585
G1 X177.964 Y173.789 E7.36705
G1 X177.453 Y174.575 E7.39823
G1 X176.877 Y175.316 E7.42945
G1 X176.241 Y176.004 E7.46061
G1 X175.548 Y176.636 E7.49181
G1 X174.804 Y177.207 E7.523
G1 X174.013 Y177.712 E7.55421
G1 X173.183 Y178.148 E7.5854
G1 X172.319 Y178.512 E7.61658
G1 X171.426 Y178.801 E7.6478
G1 X170.513 Y179.012 E7.67896
G1 X169.584 Y179.145 E7.71018
G1 X168.798 Y179.196 E7.73637
G1 X168.169 Y179.209 E7.7573
G1 X67.272 Y179.208 E11.11315
G1 X66.573 Y179.198 E11.1364
G1 X65.636 Y179.144 E11.16761
G1 X64.708 Y179.012 E11.19879
G1 X63.794 Y178.8 E11.23
G1 X62.902 Y178.511 E11.26118
G1 X62.037 Y178.148 E11.29238
G1 X61.207 Y177.712 E11.32357
G1 X60.417 Y177.207 E11.35475
G1 X59.672 Y176.636 E11.38597
G1 X58.979 Y176.004 E11.41717
G1 X58.342 Y175.316 E11.44835
G1 X57.767 Y174.575 E11.47955
G1 X57.256 Y173.789 E11.51073
G1 X56.814 Y172.961 E11.54195
G1 X56.445 Y172.1 E11.5731
G1 X56.169 Y171.277 E11.60197
G1 X55.871 Y170.253 E11.63745
G1 X55.106 Y167.763 E11.72408
G1 X54.305 Y165.395 E11.80723
G1 X53.434 Y163.038 E11.8908
G1 X52.497 Y160.71 E11.97427
G1 X51.489 Y158.397 E12.05819
G1 X50.415 Y156.111 E12.14219
G1 X49.28 Y153.864 E12.22592
G1 X48.849 Y153.063 E12.25618
G1 X48.781 Y152.924 E12.26132
G1 X47.412 Y150.365 E12.35785
G1 X47.205 Y149.958 E12.37304
G1 X46.413 Y148.318 E12.43361
G1 X46.219 Y147.893 E12.44915
G1 X45.298 Y145.744 E12.52691
G1 X44.776 Y144.393 E12.57509
G1 X44.485 Y143.574 E12.60399
G1 X44.114 Y142.482 E12.64235
G1 X43.991 Y142.098 E12.65576
G1 X43.503 Y140.468 E12.71236
G1 X43.214 Y139.391 E12.74944
G1 X42.845 Y137.869 E12.80153
G1 X42.676 Y137.08 E12.82837
G1 X42.401 Y135.672 E12.87608
G1 X42.261 Y134.837 E12.90424
G1 X42.048 Y133.41 E12.95223
G1 X41.949 Y132.581 E12.98
G1 X41.797 Y131.085 E13.03001
G1 X41.742 Y130.35 E13.05453
G1 X41.661 Y128.935 E13.10167
G1 X41.634 Y128.057 E13.13089
G1 X41.618 Y126.644 E13.17788
G1 X41.631 Y125.812 E13.20556
G1 X41.678 Y124.42 E13.25189
G1 X41.733 Y123.516 E13.28201
G1 X41.839 Y122.189 E13.32628
G1 X41.927 Y121.352 E13.35428
G1 X42.112 Y119.878 E13.40369
G1 X42.231 Y119.098 E13.42993
G1 X42.472 Y117.689 E13.47747
G1 X42.637 Y116.858 E13.50565
G1 X42.864 Y115.793 E13.54187
G1 X42.957 Y115.393 E13.55553
G1 X43.454 Y113.45 E13.62223
G1 X43.721 Y112.534 E13.65397
G1 X44.143 Y111.175 E13.7013
G1 X44.423 Y110.354 E13.73015
G1 X44.887 Y109.057 E13.77597
G1 X45.225 Y108.188 E13.80698
G1 X45.745 Y106.918 E13.85262
G1 X46.001 Y106.338 E13.87371
G1 X46.818 Y104.572 E13.93843
G1 X47.019 Y104.16 E13.95367
G1 X47.846 Y102.552 E14.01381
G1 X48.063 Y102.151 E14.02898
G1 X48.987 Y100.524 E14.09121
G1 X49.216 Y100.139 E14.10611
G1 X50.178 Y98.595 E14.16662
G1 X50.416 Y98.229 E14.18114
G1 X51.502 Y96.631 E14.2454
G1 X51.749 Y96.283 E14.25959
G1 X52.844 Y94.799 E14.32093
G1 X53.11 Y94.453 E14.33545
G1 X54.342 Y92.915 E14.40099
G1 X54.612 Y92.591 E14.41502
G1 X55.892 Y91.113 E14.48005
G1 X56.158 Y90.816 E14.49331
G1 X57.451 Y89.428 E14.5564
G1 X57.743 Y89.127 E14.57035
G1 X59.225 Y87.653 E14.63987
G1 F2700 E9.63987
G0 F6000 X54.654 Y93.165
G1 F2700 E14.63987
G1 F1200 X54.914 Y92.853 E14.65338
G1 X56.194 Y91.375 E14.71841
G1 X56.451 Y91.089 E14.7312
G1 X57.744 Y89.701 E14.79429
G1 X58.025 Y89.41 E14.80775
G1 X59.507 Y87.936 E14.87727
G1 X59.785 Y87.669 E14.89009
G1 X61.193 Y86.367 E14.95387
G1 X63.014 Y84.787 E15.03406
G1 X63.303 Y84.547 E15.04655
G1 X65.164 Y83.06 E15.12578
G1 X67.082 Y81.633 E15.20529
G1 X68.581 Y80.583 E15.26617
G1 X69.126 Y80.215 E15.28804
G1 X70.58 Y79.266 E15.34579
G1 X71.128 Y78.921 E15.36733
G1 X72.644 Y78 E15.42632
G1 X73.279 Y77.629 E15.45078
G1 X74.703 Y76.825 E15.50517
G1 X75.357 Y76.468 E15.52996
G1 X76.92 Y75.649 E15.58865
G1 X77.559 Y75.327 E15.61245
G1 X79.068 Y74.594 E15.66824
G1 X79.814 Y74.246 E15.69562
G1 X81.298 Y73.58 E15.74972
G1 X82.112 Y73.23 E15.77919
G1 X83.53 Y72.644 E15.83022
G1 X84.365 Y72.313 E15.8601
G1 X85.941 Y71.716 E15.91615
G1 X86.75 Y71.424 E15.94476
G1 X88.217 Y70.916 E15.99639
G1 X89.099 Y70.624 E16.0273
G1 X90.66 Y70.134 E16.08171
G1 X91.512 Y69.88 E16.11128
G1 X93.042 Y69.446 E16.16418
G1 X93.893 Y69.219 E16.19347
G1 X95.502 Y68.812 E16.24867
G1 X96.441 Y68.589 E16.28077
G1 X97.884 Y68.267 E16.32995
G1 X98.852 Y68.064 E16.36284
G1 X100.424 Y67.758 E16.41611
G1 X101.505 Y67.565 E16.45263
G1 X102.853 Y67.341 E16.49808
G1 X103.917 Y67.18 E16.53387
G1 X105.383 Y66.978 E16.58309
G1 X106.475 Y66.843 E16.61969
G1 X107.943 Y66.682 E16.66881
G1 X108.983 Y66.582 E16.70356
G1 X110.419 Y66.463 E16.75148
G1 X111.479 Y66.39 E16.78682
G1 X113.075 Y66.301 E16.83999
G1 X114.198 Y66.255 E16.87737
G1 X115.521 Y66.218 E16.92139
G1 X116.619 Y66.202 E16.95792
G1 X117.999 Y66.199 E17.00381
G1 X119.221 Y66.213 E17.04446
G1 X120.687 Y66.251 E17.09324
G1 X121.753 Y66.292 E17.12872
G1 X123.173 Y66.367 E17.17601
G1 X124.291 Y66.441 E17.21328
G1 X125.853 Y66.567 E17.2654
G1 X126.911 Y66.668 E17.30075
G1 X128.332 Y66.821 E17.34829
G1 X129.356 Y66.945 E17.38259
G1 X130.815 Y67.142 E17.43156
G1 X131.91 Y67.304 E17.46838
G1 X133.417 Y67.55 E17.51916
G1 X134.402 Y67.725 E17.55244
G1 X135.902 Y68.013 E17.60324
G1 X136.845 Y68.208 E17.63527
G1 X138.362 Y68.542 E17.68693
G1 X139.322 Y68.769 E17.71974
G1 X140.85 Y69.152 E17.77213
G1 X141.738 Y69.387 E17.80269
G1 X143.292 Y69.823 E17.85637
G1 X144.151 Y70.077 E17.88616
G1 X145.718 Y70.565 E17.94075
G1 X146.534 Y70.833 E17.96932
G1 X148.088 Y71.366 E18.02396
G1 X148.899 Y71.658 E18.05263
G1 X150.375 Y72.212 E18.10506
G1 X151.229 Y72.548 E18.13559
G1 X152.707 Y73.154 E18.18872
G1 X153.466 Y73.479 E18.21618
G1 X155.033 Y74.176 E18.27322
G1 X155.701 Y74.487 E18.29773
G1 X157.288 Y75.252 E18.35632
G1 X157.957 Y75.588 E18.38122
G1 X159.441 Y76.36 E18.43686
G1 X160.125 Y76.731 E18.46274
G1 X161.543 Y77.527 E18.51683
G1 X162.181 Y77.899 E18.54139
G1 X163.701 Y78.816 E18.60043
G1 X164.277 Y79.177 E18.62304
G1 X165.839 Y80.193 E18.68502
G1 X167.758 Y81.517 E18.76256
G1 X168.26 Y81.88 E18.78317
G1 X169.828 Y83.055 E18.84834
G1 X171.692 Y84.544 E18.92769
G1 X171.98 Y84.783 E18.94013
G1 X173.466 Y86.064 E19.00539
G1 X175.17 Y87.629 E19.08234
G1 X175.444 Y87.891 E19.09495
G1 X177.06 Y89.501 E19.17082
G1 X178.371 Y90.894 E19.23444
G1 X178.636 Y91.186 E19.24756
G1 X179.891 Y92.623 E19.31101
G1 X180.145 Y92.926 E19.32416
G1 X181.366 Y94.434 E19.3887
G1 X181.614 Y94.752 E19.40211
G1 X182.727 Y96.239 E19.46389
G1 X182.978 Y96.589 E19.47821
G1 X184.058 Y98.161 E19.54165
G1 X184.284 Y98.504 E19.55531
G1 X185.272 Y100.069 E19.61687
G1 X185.495 Y100.438 E19.63121
G1 X186.409 Y102.025 E19.69212
G1 X186.616 Y102.403 E19.70646
G1 X187.472 Y104.04 E19.7679
G1 X187.675 Y104.449 E19.78308
G1 X188.528 Y106.267 E19.84988
G1 X189.109 Y107.61 E19.89854
G1 X189.44 Y108.442 E19.92833
G1 X190.188 Y110.461 E19.99994
G1 X190.636 Y111.797 E20.04681
G1 X190.988 Y112.966 E20.08741
G1 X191.35 Y114.265 E20.13226
G1 X191.572 Y115.161 E20.16297
G1 X191.888 Y116.541 E20.21005
G1 X192.058 Y117.382 E20.23859
G1 X192.297 Y118.685 E20.28265
G1 X192.428 Y119.524 E20.31089
G1 X192.612 Y120.848 E20.35535
G1 X192.713 Y121.757 E20.38577
G1 X192.837 Y123.089 E20.43027
G1 X192.898 Y124.05 E20.46229
G1 X192.961 Y125.53 E20.51156
G1 X192.98 Y127.087 E20.56335
G1 X192.96 Y128.247 E20.60194
G1 X192.899 Y129.692 E20.65005
G1 X192.828 Y130.715 E20.68415
G1 X192.683 Y132.269 E20.73606
G1 X192.477 Y133.903 E20.79084
G1 X192.41 Y134.355 E20.80604
G1 X192.127 Y136.018 E20.86214
G1 X191.9 Y137.146 E20.90041
G1 X191.566 Y138.626 E20.95088
G1 X191.343 Y139.499 E20.98085
G1 X190.981 Y140.817 E21.02631
G1 X190.718 Y141.68 E21.05631
G1 X190.356 Y142.806 E21.09565
G1 X190.198 Y143.262 E21.1117
G1 X189.361 Y145.509 E21.19145
G1 X189.216 Y145.879 E21.20467
G1 X188.676 Y147.162 E21.25097
G1 X188.41 Y147.744 E21.27225
G1 X187.569 Y149.513 E21.3374
G1 X187.366 Y149.918 E21.35247
G1 X185.985 Y152.528 E21.45068
G1 X184.804 Y154.85 E21.53733
G1 X183.721 Y157.13 E21.62128
G1 X182.697 Y159.458 E21.70587
G1 X181.73 Y161.837 E21.79128
G1 X180.86 Y164.163 E21.87388
G1 X180.044 Y166.546 E21.95766
G1 X179.283 Y168.997 E22.04302
G1 X178.685 Y171.099 E22.1157
G1 X178.395 Y171.973 E22.14633
G1 X178.03 Y172.818 E22.17695
G1 X177.593 Y173.629 E22.20759
G1 X177.088 Y174.398 E22.23819
G1 X176.518 Y175.121 E22.26881
G1 X175.887 Y175.792 E22.29944
G1 X175.2 Y176.405 E22.33007
G1 X174.463 Y176.956 E22.36067
G1 X173.68 Y177.442 E22.39132
G1 X172.859 Y177.857 E22.42192
G1 X172.004 Y178.2 E22.45256
G1 X171.123 Y178.467 E22.48318
G1 X170.223 Y178.657 E22.51377
G1 X169.309 Y178.768 E22.5444
G1 X168.467 Y178.805 E22.57243
G1 X67.277 Y178.808 E25.93802
G1 X66.578 Y178.798 E25.96127
G1 X65.659 Y178.745 E25.99189
G1 X64.748 Y178.612 E26.02251
G1 X63.852 Y178.401 E26.05313
G1 X62.978 Y178.113 E26.08373
G1 X62.132 Y177.75 E26.11435
G1 X61.32 Y177.315 E26.14499
G1 X60.55 Y176.811 E26.1756
G1 X59.826 Y176.242 E26.20623
G1 X59.154 Y175.613 E26.23684
G1 X58.539 Y174.927 E26.26748
G1 X57.986 Y174.191 E26.2981
G1 X57.499 Y173.41 E26.32872
G1 X57.082 Y172.589 E26.35934
G1 X56.737 Y171.735 E26.38998
G1 X56.553 Y171.165 E26.4099
G1 X56.235 Y170.074 E26.4477
G1 X55.495 Y167.665 E26.53151
G1 X54.684 Y165.265 E26.61577
G1 X53.809 Y162.898 E26.69971
G1 X52.858 Y160.537 E26.78436
G1 X51.86 Y158.246 E26.86748
G1 X50.776 Y155.94 E26.95223
G1 X49.617 Y153.643 E27.0378
G1 X47.764 Y150.176 E27.16855
G1 X47.565 Y149.784 E27.18317
G1 X46.773 Y148.144 E27.24375
G1 X46.586 Y147.734 E27.25874
G1 X45.671 Y145.599 E27.33599
G1 X45.153 Y144.258 E27.38381
G1 X44.863 Y143.445 E27.41252
G1 X44.492 Y142.353 E27.45087
G1 X44.374 Y141.983 E27.46379
G1 X43.886 Y140.353 E27.52038
G1 X43.601 Y139.289 E27.55702
G1 X43.236 Y137.785 E27.60849
G1 X43.069 Y137.001 E27.63516
G1 X42.795 Y135.606 E27.68244
G1 X42.656 Y134.777 E27.7104
G1 X42.445 Y133.361 E27.75801
G1 X42.347 Y132.539 E27.78555
G1 X42.196 Y131.054 E27.83519
G1 X42.142 Y130.326 E27.85947
G1 X42.06 Y128.922 E27.90625
G1 X42.034 Y128.051 E27.93523
G1 X42.018 Y126.65 E27.98183
G1 X42.031 Y125.824 E28.00931
G1 X42.077 Y124.444 E28.05523
G1 X42.132 Y123.547 E28.08512
G1 X42.237 Y122.23 E28.12907
G1 X42.324 Y121.401 E28.15679
G1 X42.508 Y119.937 E28.20587
G1 X42.626 Y119.164 E28.23187
G1 X42.864 Y117.766 E28.27904
G1 X43.028 Y116.941 E28.30702
G1 X43.255 Y115.876 E28.34324
G1 X43.345 Y115.491 E28.35639
