;FLAVOR:Marlin
;TIME:3609
;Filament used: 2.25784m
;Layer height: 0.2
;MINX:96.5
;MINY:63.311
;MINZ:0.2
;MAXX:138.5
;MAXY:171.689
;MAXZ:31.4
;Generated with Cura_SteamEngine 5.0.0
M140 S50
M105
M190 S50
M104 S200
M105
M109 S200
M82 ;absolute extrusion mode
; Ender 3 Custom Start G-code
G92 E0 ; Reset Extruder
G28 ; Home all axes
G1 Z2.0 F3000 ; Move Z Axis up little to prevent scratching of Heat Bed
G1 X0.1 Y20 Z0.3 F5000.0 ; Move to start position
G1 X0.1 Y200.0 Z0.3 F1500.0 E15 ; Draw the first line
G1 X0.4 Y200.0 Z0.3 F5000.0 ; Move to side a little
G1 X0.4 Y20 Z0.3 F1500.0 E30 ; Draw the second line
G92 E0 ; Reset Extruder
G1 Z2.0 F3000 ; Move Z Axis up little to prevent scratching of Heat Bed
G1 X5 Y20 Z0.3 F5000.0 ; Move over to prevent blob squish
G92 E0
G92 E0
G1 F2700 E-5
;LAYER_COUNT:157
;LAYER:0
M107
G0 F6000 X98.496 Y68.014 Z0.2
G0 X96.501 Y74.836
;TYPE:SKIRT
G1 F2700 E0
G1 F1200 X96.51 Y74.171 E0.02212
G1 X96.563 Y73.235 E0.0533
G1 X96.695 Y72.306 E0.08451
G1 X96.906 Y71.392 E0.11571
G1 X97.194 Y70.5 E0.14689
G1 X97.557 Y69.635 E0.17809
G1 X97.992 Y68.804 E0.20928
G1 X98.496 Y68.014 E0.24045
G1 X99.066 Y67.269 E0.27165
G1 X99.698 Y66.575 E0.30287
G1 X100.386 Y65.938 E0.33405
G1 X101.126 Y65.362 E0.36524
G1 X101.912 Y64.85 E0.39644
G1 X102.739 Y64.408 E0.42763
G1 X103.601 Y64.038 E0.45883
G1 X104.491 Y63.742 E0.49003
G1 X105.403 Y63.524 E0.52122
G1 X106.33 Y63.383 E0.5524
G1 X107.201 Y63.324 E0.58144
G1 X107.83 Y63.311 E0.60236
G1 X126.793 Y63.311 E1.23308
G1 X127.649 Y63.322 E1.26155
G1 X128.585 Y63.376 E1.29273
G1 X129.513 Y63.508 E1.32391
G1 X130.427 Y63.72 E1.35511
G1 X131.319 Y64.009 E1.3863
G1 X132.184 Y64.372 E1.4175
G1 X133.014 Y64.808 E1.44868
G1 X133.805 Y65.313 E1.4799
G1 X134.549 Y65.884 E1.51109
G1 X135.242 Y66.516 E1.54229
G1 X135.879 Y67.204 E1.57347
G1 X136.454 Y67.945 E1.60467
G1 X136.965 Y68.731 E1.63585
G1 X137.407 Y69.559 E1.66707
G1 X137.776 Y70.421 E1.69825
G1 X138.071 Y71.311 E1.72944
G1 X138.289 Y72.223 E1.76063
G1 X138.429 Y73.151 E1.79184
G1 X138.487 Y74.012 E1.82054
G1 X138.5 Y74.641 E1.84147
G1 X138.499 Y160.089 E4.68348
G1 X138.49 Y160.816 E4.70766
G1 X138.439 Y161.753 E4.73887
G1 X138.307 Y162.681 E4.77005
G1 X138.098 Y163.595 E4.80123
G1 X137.811 Y164.488 E4.83243
G1 X137.449 Y165.354 E4.86365
G1 X137.015 Y166.185 E4.89483
G1 X136.511 Y166.976 E4.92603
G1 X135.942 Y167.721 E4.9572
G1 X135.311 Y168.416 E4.98843
G1 X134.624 Y169.054 E5.01961
G1 X133.885 Y169.631 E5.05079
G1 X133.099 Y170.143 E5.08199
G1 X132.273 Y170.586 E5.11317
G1 X131.411 Y170.958 E5.14439
G1 X130.522 Y171.254 E5.17556
G1 X129.61 Y171.474 E5.20676
G1 X128.683 Y171.615 E5.23795
G1 X127.799 Y171.676 E5.26742
G1 X127.17 Y171.689 E5.28835
G1 X108.065 Y171.688 E5.92378
G1 X107.367 Y171.679 E5.947
G1 X106.431 Y171.627 E5.97818
G1 X105.502 Y171.495 E6.00939
G1 X104.588 Y171.285 E6.04058
G1 X103.695 Y170.998 E6.07178
G1 X102.83 Y170.635 E6.10298
G1 X101.999 Y170.201 E6.13416
G1 X101.208 Y169.697 E6.16535
G1 X100.463 Y169.127 E6.19655
G1 X99.769 Y168.496 E6.22775
G1 X99.132 Y167.809 E6.25891
G1 X98.555 Y167.069 E6.29012
G1 X98.043 Y166.283 E6.32132
G1 X97.6 Y165.456 E6.35252
G1 X97.229 Y164.595 E6.38371
G1 X96.933 Y163.705 E6.4149
G1 X96.714 Y162.793 E6.4461
G1 X96.573 Y161.866 E6.47728
G1 X96.513 Y160.977 E6.50692
G1 X96.5 Y160.347 E6.52788
G1 X96.501 Y74.836 E9.37199
G0 F6000 X96.901 Y74.842
G1 F1200 X96.91 Y74.177 E9.39411
G1 X96.962 Y73.257 E9.42475
G1 X97.094 Y72.346 E9.45537
G1 X97.305 Y71.45 E9.48599
G1 X97.592 Y70.575 E9.51662
G1 X97.955 Y69.729 E9.54723
G1 X98.389 Y68.917 E9.57786
G1 X98.892 Y68.146 E9.60848
G1 X99.461 Y67.422 E9.6391
G1 X100.089 Y66.75 E9.66969
G1 X100.774 Y66.134 E9.70033
G1 X101.51 Y65.581 E9.73095
G1 X102.291 Y65.093 E9.76158
G1 X103.111 Y64.675 E9.7922
G1 X103.965 Y64.33 E9.82283
G1 X104.845 Y64.06 E9.85345
G1 X105.745 Y63.868 E9.88405
G1 X106.659 Y63.754 E9.91469
G1 X107.212 Y63.724 E9.93311
G1 X107.83 Y63.711 E9.95367
G1 X126.793 Y63.711 E10.58438
G1 X127.643 Y63.722 E10.61265
G1 X128.562 Y63.775 E10.64327
G1 X129.473 Y63.908 E10.67389
G1 X130.369 Y64.119 E10.70451
G1 X131.243 Y64.407 E10.73511
G1 X132.09 Y64.77 E10.76576
G1 X132.901 Y65.205 E10.79637
G1 X133.671 Y65.709 E10.82698
G1 X134.395 Y66.278 E10.85761
G1 X135.067 Y66.908 E10.88825
G1 X135.682 Y67.593 E10.91886
G1 X136.235 Y68.329 E10.94948
G1 X136.722 Y69.11 E10.9801
G1 X137.139 Y69.931 E11.01072
G1 X137.484 Y70.785 E11.04136
G1 X137.753 Y71.665 E11.07196
G1 X137.945 Y72.566 E11.1026
G1 X138.058 Y73.479 E11.1332
G1 X138.096 Y74.343 E11.16197
G1 X138.099 Y160.084 E14.01372
G1 X138.09 Y160.811 E14.03791
G1 X138.039 Y161.73 E14.06852
G1 X137.908 Y162.642 E14.09916
G1 X137.698 Y163.538 E14.12977
G1 X137.412 Y164.413 E14.16039
G1 X137.051 Y165.26 E14.19101
G1 X136.617 Y166.072 E14.22164
G1 X136.115 Y166.844 E14.25226
G1 X135.547 Y167.569 E14.2829
G1 X134.919 Y168.242 E14.31351
G1 X134.235 Y168.858 E14.34413
G1 X133.5 Y169.412 E14.37474
G1 X132.72 Y169.901 E14.40536
G1 X131.9 Y170.32 E14.43599
G1 X131.047 Y170.666 E14.4666
G1 X130.167 Y170.937 E14.49723
G1 X129.267 Y171.13 E14.52784
G1 X128.353 Y171.245 E14.55848
G1 X127.788 Y171.276 E14.5773
G1 X127.17 Y171.289 E14.59786
G1 X108.07 Y171.288 E15.23313
G1 X107.372 Y171.279 E15.25635
G1 X106.453 Y171.227 E15.28696
G1 X105.542 Y171.096 E15.31758
G1 X104.646 Y170.886 E15.34818
G1 X103.771 Y170.599 E15.37881
G1 X102.924 Y170.237 E15.40945
G1 X102.112 Y169.803 E15.44007
G1 X101.341 Y169.301 E15.47067
G1 X100.616 Y168.733 E15.5013
G1 X99.943 Y168.104 E15.53194
G1 X99.328 Y167.42 E15.56254
G1 X98.774 Y166.685 E15.59315
G1 X98.286 Y165.904 E15.62378
G1 X97.867 Y165.084 E15.65441
G1 X97.521 Y164.231 E15.68502
G1 X97.251 Y163.351 E15.71564
G1 X97.058 Y162.45 E15.74629
G1 X96.944 Y161.537 E15.77689
G1 X96.913 Y160.966 E15.79591
G1 X96.9 Y160.347 E15.8165
G1 X96.901 Y74.842 E18.66041
G0 F6000 X97.301 Y74.847
G1 F1200 X97.31 Y74.182 E18.68253
G1 X97.362 Y73.28 E18.71258
G1 X97.494 Y72.387 E18.7426
G1 X97.704 Y71.509 E18.77263
G1 X97.991 Y70.652 E18.80269
G1 X98.353 Y69.825 E18.83271
G1 X98.786 Y69.033 E18.86274
G1 X99.288 Y68.282 E18.89278
G1 X99.855 Y67.578 E18.92285
G1 X100.481 Y66.928 E18.95286
G1 X101.162 Y66.335 E18.9829
G1 X101.894 Y65.805 E19.01295
G1 X102.669 Y65.342 E19.04298
G1 X103.482 Y64.949 E19.07301
G1 X104.327 Y64.629 E19.10307
G1 X105.196 Y64.386 E19.13308
G1 X106.084 Y64.22 E19.16312
G1 X107.223 Y64.124 E19.20114
G1 X107.83 Y64.111 E19.22134
G1 X126.793 Y64.111 E19.85205
G1 X127.637 Y64.122 E19.88012
G1 X128.539 Y64.175 E19.91017
G1 X129.432 Y64.307 E19.9402
G1 X130.31 Y64.518 E19.97023
G1 X131.166 Y64.806 E20.00027
G1 X131.993 Y65.168 E20.0303
G1 X132.785 Y65.603 E20.06035
G1 X133.536 Y66.105 E20.0904
G1 X134.239 Y66.672 E20.12043
G1 X134.889 Y67.299 E20.15047
G1 X135.481 Y67.981 E20.18051
G1 X136.011 Y68.712 E20.21054
G1 X136.473 Y69.488 E20.24058
G1 X136.866 Y70.301 E20.27061
G1 X137.184 Y71.146 E20.30064
G1 X137.427 Y72.016 E20.33069
G1 X137.592 Y72.904 E20.36073
G1 X137.687 Y74.034 E20.39844
G1 X137.7 Y74.641 E20.41864
G1 X137.699 Y160.079 E23.26032
G1 X137.69 Y160.806 E23.2845
G1 X137.639 Y161.708 E23.31455
G1 X137.508 Y162.602 E23.3446
G1 X137.299 Y163.48 E23.37462
G1 X137.013 Y164.337 E23.40467
G1 X136.652 Y165.165 E23.43471
G1 X136.22 Y165.957 E23.46472
G1 X135.719 Y166.709 E23.49477
G1 X135.153 Y167.413 E23.52481
G1 X134.528 Y168.064 E23.55483
G1 X133.847 Y168.658 E23.58489
G1 X133.116 Y169.189 E23.61494
G1 X132.342 Y169.653 E23.64495
G1 X131.529 Y170.047 E23.675
G1 X130.685 Y170.367 E23.70502
G1 X129.815 Y170.612 E23.73508
G1 X128.928 Y170.778 E23.7651
G1 X127.777 Y170.876 E23.80352
G1 X127.17 Y170.889 E23.82371
G1 X108.075 Y170.888 E24.45881
G1 X107.377 Y170.879 E24.48203
G1 X106.476 Y170.828 E24.51205
G1 X105.582 Y170.696 E24.5421
G1 X104.704 Y170.487 E24.57212
G1 X103.847 Y170.2 E24.60218
G1 X103.02 Y169.839 E24.63219
G1 X102.227 Y169.406 E24.66224
G1 X101.476 Y168.905 E24.69227
G1 X100.772 Y168.339 E24.72232
G1 X100.121 Y167.713 E24.75235
G1 X99.528 Y167.032 E24.78239
G1 X98.998 Y166.301 E24.81242
G1 X98.534 Y165.526 E24.84246
G1 X98.14 Y164.713 E24.87251
G1 X97.82 Y163.869 E24.90253
G1 X97.576 Y162.999 E24.93259
G1 X97.41 Y162.111 E24.96263
G1 X97.313 Y160.956 E25.00118
G1 X97.3 Y160.347 E25.02144
G1 X97.301 Y74.847 E27.86518
G1 F2700 E22.86518
;MESH:camera_adapter_base.stl
G0 F6000 X106.835 Y74.847
G0 X107.93 Y74.847
G0 X108.08 Y160.109
G1 F2700 E27.86518
G0 F6000 X107.7 Y160.489
;TYPE:WALL-OUTER
G1 F1200 X127.3 Y160.489 E28.51708
G1 X127.3 Y150.689 E28.84303
G1 X127.3 Y74.511 E31.37672
G1 X107.7 Y74.511 E32.02862
G1 X107.7 Y160.489 E34.88826
G0 F6000 X108.1 Y160.089
;TYPE:WALL-INNER
G1 F1200 X126.9 Y160.089 E35.51355
G1 X126.9 Y150.689 E35.8262
G1 X126.9 Y74.911 E38.34658
G1 X108.1 Y74.911 E38.97187
G1 X108.1 Y160.089 E41.80491
G0 F6000 X108.46 Y159.729
;TYPE:SKIN
G1 F1200 X126.54 Y159.729 E42.40625
G1 X126.54 Y84.311 E44.91466
G1 X126.54 Y75.271 E45.21533
G1 X108.46 Y75.271 E45.81668
G1 X108.46 Y159.729 E48.62576
G0 F6000 X109.182 Y159.528
G1 F1200 X108.659 Y159.005 E48.65036
G0 F6000 X108.659 Y158.44
G1 F1200 X109.747 Y159.528 E48.70154
G0 F6000 X110.313 Y159.528
G1 F1200 X108.659 Y157.874 E48.77934
G0 F6000 X108.659 Y157.308
G1 F1200 X110.879 Y159.528 E48.88376
G0 F6000 X111.444 Y159.528
G1 F1200 X108.659 Y156.742 E49.01478
G0 F6000 X108.659 Y156.177
G1 F1200 X112.01 Y159.528 E49.1724
G0 F6000 X112.576 Y159.528
G1 F1200 X108.659 Y155.611 E49.35664
G0 F6000 X108.659 Y155.045
G1 F1200 X113.142 Y159.528 E49.56751
G0 F6000 X113.707 Y159.528
G1 F1200 X108.659 Y154.48 E49.80495
G0 F6000 X108.659 Y153.914
G1 F1200 X114.273 Y159.528 E50.06902
G0 F6000 X114.839 Y159.528
G1 F1200 X108.659 Y153.348 E50.35971
G0 F6000 X108.659 Y152.783
G1 F1200 X115.404 Y159.528 E50.67697
G0 F6000 X115.97 Y159.528
G1 F1200 X108.659 Y152.217 E51.02086
G0 F6000 X108.659 Y151.651
G1 F1200 X116.536 Y159.528 E51.39137
G0 F6000 X117.101 Y159.528
G1 F1200 X108.659 Y151.086 E51.78845
G0 F6000 X108.659 Y150.52
G1 F1200 X117.667 Y159.528 E52.21216
G0 F6000 X118.233 Y159.528
G1 F1200 X108.659 Y149.954 E52.66249
G0 F6000 X108.659 Y149.389
G1 F1200 X118.798 Y159.528 E53.1394
G0 F6000 X119.364 Y159.528
G1 F1200 X108.659 Y148.823 E53.64293
G0 F6000 X108.659 Y148.257
G1 F1200 X119.93 Y159.528 E54.17309
G0 F6000 X120.495 Y159.528
G1 F1200 X108.659 Y147.691 E54.72984
G0 F6000 X108.659 Y147.126
G1 F1200 X121.061 Y159.528 E55.31319
G0 F6000 X121.627 Y159.528
G1 F1200 X108.659 Y146.56 E55.92317
G0 F6000 X108.659 Y145.994
G1 F1200 X122.193 Y159.528 E56.55976
G0 F6000 X122.758 Y159.528
G1 F1200 X108.659 Y145.429 E57.22294
G0 F6000 X108.659 Y144.863
G1 F1200 X123.324 Y159.528 E57.91273
G0 F6000 X123.89 Y159.528
G1 F1200 X108.659 Y144.297 E58.62915
G0 F6000 X108.659 Y143.732
G1 F1200 X124.455 Y159.528 E59.37215
G0 F6000 X125.021 Y159.528
G1 F1200 X108.659 Y143.166 E60.14177
G0 F6000 X108.659 Y142.6
G1 F1200 X125.587 Y159.528 E60.93801
G0 F6000 X126.152 Y159.528
G1 F1200 X108.659 Y142.035 E61.76083
G0 F6000 X108.659 Y141.469
G1 F1200 X126.339 Y159.149 E62.59244
G0 F6000 X126.339 Y158.583
G1 F1200 X108.659 Y140.903 E63.42405
G0 F6000 X108.659 Y140.338
G1 F1200 X126.339 Y158.017 E64.25564
G0 F6000 X126.339 Y157.452
G1 F1200 X108.659 Y139.772 E65.08725
G0 F6000 X108.659 Y139.206
G1 F1200 X126.339 Y156.886 E65.91887
G0 F6000 X126.339 Y156.32
G1 F1200 X108.659 Y138.641 E66.75046
G0 F6000 X108.659 Y138.075
G1 F1200 X126.339 Y155.755 E67.58207
G0 F6000 X126.339 Y155.189
G1 F1200 X108.659 Y137.509 E68.41368
G0 F6000 X108.659 Y136.943
G1 F1200 X126.339 Y154.623 E69.2453
G0 F6000 X126.339 Y154.058
G1 F1200 X108.659 Y136.378 E70.07691
G0 F6000 X108.659 Y135.812
G1 F1200 X126.339 Y153.492 E70.90852
G0 F6000 X126.339 Y152.926
G1 F1200 X108.659 Y135.246 E71.74013
G0 F6000 X108.659 Y134.681
G1 F1200 X126.339 Y152.361 E72.57175
G0 F6000 X126.339 Y151.795
G1 F1200 X108.659 Y134.115 E73.40336
G0 F6000 X108.659 Y133.549
G1 F1200 X126.339 Y151.229 E74.23497
G0 F6000 X126.339 Y150.663
G1 F1200 X108.659 Y132.984 E75.06656
G0 F6000 X108.659 Y132.418
G1 F1200 X126.339 Y150.098 E75.89818
G0 F6000 X126.339 Y149.532
G1 F1200 X108.659 Y131.852 E76.72979
G0 F6000 X108.659 Y131.287
G1 F1200 X126.339 Y148.966 E77.56138
G0 F6000 X126.339 Y148.401
G1 F1200 X108.659 Y130.721 E78.39299
G0 F6000 X108.659 Y130.155
G1 F1200 X126.339 Y147.835 E79.2246
G0 F6000 X126.339 Y147.269
G1 F1200 X108.659 Y129.59 E80.05619
G0 F6000 X108.659 Y129.024
G1 F1200 X126.339 Y146.704 E80.88781
G0 F6000 X126.339 Y146.138
G1 F1200 X108.659 Y128.458 E81.71942
G0 F6000 X108.659 Y127.892
G1 F1200 X126.339 Y145.572 E82.55103
G0 F6000 X126.339 Y145.007
G1 F1200 X108.659 Y127.327 E83.38265
G0 F6000 X108.659 Y126.761
G1 F1200 X126.339 Y144.441 E84.21426
G0 F6000 X126.339 Y143.875
G1 F1200 X108.659 Y126.195 E85.04587
G0 F6000 X108.659 Y125.63
G1 F1200 X126.339 Y143.31 E85.87748
G0 F6000 X126.339 Y142.744
G1 F1200 X108.659 Y125.064 E86.7091
G0 F6000 X108.659 Y124.498
G1 F1200 X126.339 Y142.178 E87.54071
G0 F6000 X126.339 Y141.612
G1 F1200 X108.659 Y123.933 E88.3723
G0 F6000 X108.659 Y123.367
G1 F1200 X126.339 Y141.047 E89.20391
G0 F6000 X126.339 Y140.481
G1 F1200 X108.659 Y122.801 E90.03553
G0 F6000 X108.659 Y122.236
G1 F1200 X126.339 Y139.915 E90.86712
G0 F6000 X126.339 Y139.35
G1 F1200 X108.659 Y121.67 E91.69873
G0 F6000 X108.659 Y121.104
G1 F1200 X126.339 Y138.784 E92.53034
G0 F6000 X126.339 Y138.218
G1 F1200 X108.659 Y120.539 E93.36193
G0 F6000 X108.659 Y119.973
G1 F1200 X126.339 Y137.653 E94.19354
G0 F6000 X126.339 Y137.087
G1 F1200 X108.659 Y119.407 E95.02516
G0 F6000 X108.659 Y118.842
G1 F1200 X126.339 Y136.521 E95.85675
G0 F6000 X126.339 Y135.956
G1 F1200 X108.659 Y118.276 E96.68836
G0 F6000 X108.659 Y117.71
G1 F1200 X126.339 Y135.39 E97.51997
G0 F6000 X126.339 Y134.824
G1 F1200 X108.659 Y117.144 E98.35159
G0 F6000 X108.659 Y116.579
G1 F1200 X126.339 Y134.259 E99.1832
G0 F6000 X126.339 Y133.693
G1 F1200 X108.659 Y116.013 E100.01481
G0 F6000 X108.659 Y115.447
G1 F1200 X126.339 Y133.127 E100.84642
G0 F6000 X126.339 Y132.562
G1 F1200 X108.659 Y114.882 E101.67804
G0 F6000 X108.659 Y114.316
G1 F1200 X126.339 Y131.996 E102.50965
G0 F6000 X126.339 Y131.43
G1 F1200 X108.659 Y113.75 E103.34126
G0 F6000 X108.659 Y113.185
G1 F1200 X126.339 Y130.864 E104.17285
G0 F6000 X126.339 Y130.299
G1 F1200 X108.659 Y112.619 E105.00447
G0 F6000 X108.659 Y112.053
G1 F1200 X126.339 Y129.733 E105.83608
G0 F6000 X126.339 Y129.167
G1 F1200 X108.659 Y111.488 E106.66767
G0 F6000 X108.659 Y110.922
G1 F1200 X126.339 Y128.602 E107.49928
G0 F6000 X126.339 Y128.036
G1 F1200 X108.659 Y110.356 E108.33089
G0 F6000 X108.659 Y109.791
G1 F1200 X126.339 Y127.47 E109.16248
G0 F6000 X126.339 Y126.905
G1 F1200 X108.659 Y109.225 E109.9941
G0 F6000 X108.659 Y108.659
G1 F1200 X126.339 Y126.339 E110.82571
G0 F6000 X126.339 Y125.773
G1 F1200 X108.659 Y108.093 E111.65732
G0 F6000 X108.659 Y107.528
G1 F1200 X126.339 Y125.208 E112.48894
G0 F6000 X126.339 Y124.642
G1 F1200 X108.659 Y106.962 E113.32055
G0 F6000 X108.659 Y106.396
G1 F1200 X126.339 Y124.076 E114.15216
G0 F6000 X126.339 Y123.511
G1 F1200 X108.659 Y105.831 E114.98377
G0 F6000 X108.659 Y105.265
G1 F1200 X126.339 Y122.945 E115.81539
G0 F6000 X126.339 Y122.379
G1 F1200 X108.659 Y104.699 E116.647
G0 F6000 X108.659 Y104.134
G1 F1200 X126.339 Y121.813 E117.47859
G0 F6000 X126.339 Y121.248
G1 F1200 X108.659 Y103.568 E118.3102
G0 F6000 X108.659 Y103.002
G1 F1200 X126.339 Y120.682 E119.14182
G0 F6000 X126.339 Y120.116
G1 F1200 X108.659 Y102.437 E119.97341
G0 F6000 X108.659 Y101.871
G1 F1200 X126.339 Y119.551 E120.80502
G0 F6000 X126.339 Y118.985
G1 F1200 X108.659 Y101.305 E121.63663
G0 F6000 X108.659 Y100.74
G1 F1200 X126.339 Y118.419 E122.46822
G0 F6000 X126.339 Y117.854
G1 F1200 X108.659 Y100.174 E123.29983
G0 F6000 X108.659 Y99.608
G1 F1200 X126.339 Y117.288 E124.13145
G0 F6000 X126.339 Y116.722
G1 F1200 X108.659 Y99.043 E124.96304
G0 F6000 X108.659 Y98.477
G1 F1200 X126.339 Y116.157 E125.79465
G0 F6000 X126.339 Y115.591
G1 F1200 X108.659 Y97.911 E126.62626
G0 F6000 X108.659 Y97.345
G1 F1200 X126.339 Y115.025 E127.45788
