;FLAVOR:Marlin
;TIME:1152
;Filament used: 0.65458m
;Layer height: 0.2
;MINX:86.4
;MINY:94.25
;MINZ:0.2
;MAXX:148.7
;MAXY:140.75
;MAXZ:5.8
;Generated with Cura_SteamEngine 5.0.0
M140 S50
M105
M190 S50
M104 S200
M105
M109 S200
M82 ;absolute extrusion mode
; Ender 3 Custom Start G-code
G92 E0 ; Reset Extruder
G28 ; Home all axes
G1 Z2.0 F3000 ; Move Z Axis up little to prevent scratching of Heat Bed
G1 X0.1 Y20 Z0.3 F5000.0 ; Move to start position
G1 X0.1 Y200.0 Z0.3 F1500.0 E15 ; Draw the first line
G1 X0.4 Y200.0 Z0.3 F5000.0 ; Move to side a little
G1 X0.4 Y20 Z0.3 F1500.0 E30 ; Draw the second line
G92 E0 ; Reset Extruder
G1 Z2.0 F3000 ; Move Z Axis up little to prevent scratching of Heat Bed
G1 X5 Y20 Z0.3 F5000.0 ; Move over to prevent blob squish
G92 E0
G92 E0
G1 F2700 E-5
;LAYER_COUNT:29
;LAYER:0
M107
G0 F6000 X90.286 Y96.877 Z0.2
G0 X86.401 Y105.775
;TYPE:SKIRT
G1 F2700 E0
G1 F1200 X86.41 Y105.11 E0.02212
G1 X86.463 Y104.174 E0.0533
G1 X86.595 Y103.245 E0.08451
G1 X86.806 Y102.331 E0.11571
G1 X87.094 Y101.439 E0.14689
G1 X87.457 Y100.574 E0.17809
G1 X87.892 Y99.743 E0.20928
G1 X88.396 Y98.953 E0.24045
G1 X88.966 Y98.208 E0.27165
G1 X89.598 Y97.514 E0.30287
G1 X90.286 Y96.877 E0.33405
G1 X91.026 Y96.301 E0.36524
G1 X91.812 Y95.789 E0.39644
G1 X92.639 Y95.347 E0.42763
G1 X93.501 Y94.977 E0.45883
G1 X94.391 Y94.681 E0.49003
G1 X95.303 Y94.463 E0.52122
G1 X96.23 Y94.322 E0.5524
G1 X97.099 Y94.263 E0.58137
G1 X97.731 Y94.25 E0.6024
G1 X102.082 Y94.252 E0.74711
G1 X102.721 Y94.261 E0.76837
G1 X104.041 Y94.359 E0.81239
G1 X105.495 Y94.556 E0.86119
G1 X108.017 Y94.865 E0.9457
G1 X110.519 Y95.099 E1.02928
G1 X113.039 Y95.264 E1.11328
G1 X115.56 Y95.356 E1.19718
G1 X118.088 Y95.378 E1.28127
G1 X120.605 Y95.329 E1.365
G1 X123.104 Y95.209 E1.44821
G1 X125.596 Y95.019 E1.53134
G1 X128.126 Y94.752 E1.61595
G1 X131.047 Y94.358 E1.71398
G1 X132.288 Y94.261 E1.75539
G1 X132.947 Y94.25 E1.77731
G1 X136.993 Y94.25 E1.91188
G1 X137.849 Y94.261 E1.94035
G1 X138.785 Y94.315 E1.97153
G1 X139.713 Y94.447 E2.00271
G1 X140.627 Y94.659 E2.03392
G1 X141.519 Y94.948 E2.0651
G1 X142.384 Y95.311 E2.0963
G1 X143.214 Y95.747 E2.12749
G1 X144.005 Y96.252 E2.1587
G1 X144.749 Y96.823 E2.18989
G1 X145.442 Y97.455 E2.22109
G1 X146.079 Y98.143 E2.25227
G1 X146.654 Y98.884 E2.28347
G1 X147.165 Y99.67 E2.31465
G1 X147.607 Y100.498 E2.34587
G1 X147.976 Y101.36 E2.37706
G1 X148.271 Y102.25 E2.40824
G1 X148.489 Y103.162 E2.43943
G1 X148.629 Y104.09 E2.47064
G1 X148.687 Y104.951 E2.49935
G1 X148.7 Y105.58 E2.52027
G1 X148.699 Y129.15 E3.30421
G1 X148.69 Y129.877 E3.32839
G1 X148.639 Y130.814 E3.3596
G1 X148.507 Y131.742 E3.39078
G1 X148.298 Y132.656 E3.42196
G1 X148.011 Y133.549 E3.45316
G1 X147.649 Y134.415 E3.48438
G1 X147.215 Y135.246 E3.51556
G1 X146.711 Y136.037 E3.54676
G1 X146.142 Y136.782 E3.57794
G1 X145.511 Y137.477 E3.60916
G1 X144.824 Y138.115 E3.64034
G1 X144.085 Y138.692 E3.67153
G1 X143.299 Y139.204 E3.70273
G1 X142.473 Y139.647 E3.7339
G1 X141.611 Y140.019 E3.76513
G1 X140.722 Y140.315 E3.79629
G1 X139.81 Y140.535 E3.82749
G1 X138.883 Y140.676 E3.85868
G1 X137.999 Y140.737 E3.88815
G1 X137.37 Y140.75 E3.90908
G1 X97.965 Y140.749 E5.21969
G1 X97.267 Y140.74 E5.24291
G1 X96.331 Y140.688 E5.27409
G1 X95.402 Y140.556 E5.3053
G1 X94.488 Y140.346 E5.33649
G1 X93.595 Y140.059 E5.36769
G1 X92.73 Y139.696 E5.39889
G1 X91.899 Y139.262 E5.43007
G1 X91.108 Y138.758 E5.46127
G1 X90.363 Y138.188 E5.49247
G1 X89.669 Y137.557 E5.52366
G1 X89.032 Y136.87 E5.55482
G1 X88.455 Y136.13 E5.58603
G1 X87.943 Y135.344 E5.61723
G1 X87.5 Y134.517 E5.64844
G1 X87.129 Y133.656 E5.67962
G1 X86.833 Y132.766 E5.71082
G1 X86.614 Y131.854 E5.74201
G1 X86.473 Y130.927 E5.7732
G1 X86.413 Y130.038 E5.80283
G1 X86.4 Y129.408 E5.82379
G1 X86.401 Y105.775 E6.60983
G0 F6000 X86.801 Y105.781
G1 F1200 X86.81 Y105.116 E6.63195
G1 X86.862 Y104.196 E6.6626
G1 X86.994 Y103.285 E6.69321
G1 X87.205 Y102.389 E6.72383
G1 X87.492 Y101.514 E6.75446
G1 X87.855 Y100.668 E6.78508
G1 X88.289 Y99.856 E6.8157
G1 X88.792 Y99.085 E6.84632
G1 X89.361 Y98.361 E6.87694
G1 X89.989 Y97.689 E6.90754
G1 X90.674 Y97.073 E6.93818
G1 X91.41 Y96.52 E6.9688
G1 X92.191 Y96.032 E6.99943
G1 X93.011 Y95.614 E7.03004
G1 X93.865 Y95.269 E7.06067
G1 X94.745 Y94.999 E7.09129
G1 X95.645 Y94.807 E7.1219
G1 X96.559 Y94.693 E7.15253
G1 X97.11 Y94.663 E7.17088
G1 X97.731 Y94.65 E7.19154
G1 X102.076 Y94.652 E7.33606
G1 X102.715 Y94.661 E7.35731
G1 X103.987 Y94.756 E7.39974
G1 X105.393 Y94.946 E7.44693
G1 X107.964 Y95.261 E7.53308
G1 X110.492 Y95.498 E7.61753
G1 X113.034 Y95.664 E7.70226
G1 X115.542 Y95.756 E7.78573
G1 X118.092 Y95.778 E7.87055
G1 X120.597 Y95.729 E7.95388
G1 X123.153 Y95.606 E8.03899
G1 X125.636 Y95.417 E8.12181
G1 X128.156 Y95.152 E8.20609
G1 X131.101 Y94.754 E8.30493
G1 X132.296 Y94.661 E8.3448
G1 X132.947 Y94.65 E8.36645
G1 X136.993 Y94.65 E8.50102
G1 X137.843 Y94.661 E8.5293
G1 X138.762 Y94.714 E8.55992
G1 X139.673 Y94.847 E8.59054
G1 X140.569 Y95.058 E8.62115
G1 X141.443 Y95.346 E8.65176
G1 X142.29 Y95.709 E8.68241
G1 X143.101 Y96.144 E8.71302
G1 X143.871 Y96.648 E8.74363
G1 X144.595 Y97.217 E8.77425
G1 X145.267 Y97.847 E8.80489
G1 X145.882 Y98.532 E8.83551
G1 X146.435 Y99.268 E8.86613
G1 X146.922 Y100.049 E8.89674
G1 X147.339 Y100.87 E8.92737
G1 X147.684 Y101.724 E8.958
G1 X147.953 Y102.604 E8.98861
G1 X148.145 Y103.505 E9.01925
G1 X148.258 Y104.418 E9.04985
G1 X148.296 Y105.282 E9.07861
G1 X148.299 Y129.145 E9.8723
G1 X148.29 Y129.872 E9.89648
G1 X148.239 Y130.791 E9.92709
G1 X148.108 Y131.703 E9.95774
G1 X147.898 Y132.599 E9.98835
G1 X147.612 Y133.474 E10.01896
G1 X147.251 Y134.321 E10.04959
G1 X146.817 Y135.133 E10.08021
G1 X146.315 Y135.905 E10.11084
G1 X145.747 Y136.63 E10.14147
G1 X145.119 Y137.303 E10.17209
G1 X144.435 Y137.919 E10.2027
G1 X143.7 Y138.473 E10.23332
G1 X142.92 Y138.962 E10.26393
G1 X142.1 Y139.381 E10.29456
G1 X141.247 Y139.727 E10.32518
G1 X140.367 Y139.998 E10.3558
G1 X139.467 Y140.191 E10.38642
G1 X138.553 Y140.306 E10.41706
G1 X137.988 Y140.337 E10.43588
G1 X137.37 Y140.35 E10.45644
G1 X97.97 Y140.349 E11.76689
G1 X97.272 Y140.34 E11.7901
G1 X96.353 Y140.288 E11.82072
G1 X95.442 Y140.157 E11.85133
G1 X94.546 Y139.947 E11.88194
G1 X93.671 Y139.66 E11.91257
G1 X92.824 Y139.298 E11.9432
G1 X92.012 Y138.864 E11.97383
G1 X91.241 Y138.362 E12.00443
G1 X90.516 Y137.794 E12.03506
G1 X89.843 Y137.165 E12.0657
G1 X89.228 Y136.481 E12.09629
G1 X88.674 Y135.746 E12.1269
G1 X88.186 Y134.965 E12.15753
G1 X87.767 Y134.145 E12.18816
G1 X87.421 Y133.292 E12.21878
G1 X87.151 Y132.412 E12.24939
G1 X86.958 Y131.511 E12.28004
G1 X86.844 Y130.598 E12.31064
G1 X86.813 Y130.027 E12.32966
G1 X86.8 Y129.408 E12.35026
G1 X86.801 Y105.781 E13.13609
G0 F6000 X87.201 Y105.786
G1 F1200 X87.21 Y105.121 E13.15821
G1 X87.262 Y104.219 E13.18826
G1 X87.394 Y103.326 E13.21829
G1 X87.604 Y102.448 E13.24831
G1 X87.891 Y101.591 E13.27837
G1 X88.253 Y100.764 E13.3084
G1 X88.686 Y99.972 E13.33842
G1 X89.188 Y99.221 E13.36847
G1 X89.755 Y98.517 E13.39853
G1 X90.381 Y97.867 E13.42855
G1 X91.062 Y97.274 E13.45858
G1 X91.794 Y96.744 E13.48864
G1 X92.569 Y96.281 E13.51866
G1 X93.382 Y95.888 E13.5487
G1 X94.227 Y95.568 E13.57875
G1 X95.096 Y95.325 E13.60876
G1 X95.984 Y95.159 E13.63881
G1 X97.121 Y95.063 E13.67676
G1 X97.73 Y95.05 E13.69702
G1 X102.071 Y95.052 E13.8414
G1 X102.71 Y95.061 E13.86266
G1 X103.933 Y95.152 E13.90345
G1 X105.36 Y95.345 E13.95134
G1 X107.915 Y95.658 E14.03696
G1 X110.5 Y95.9 E14.12331
G1 X112.993 Y96.063 E14.2064
G1 X115.523 Y96.156 E14.29061
G1 X118.097 Y96.178 E14.37622
G1 X120.625 Y96.129 E14.46032
G1 X123.167 Y96.006 E14.54497
G1 X125.672 Y95.815 E14.62853
G1 X128.214 Y95.548 E14.71354
G1 X131.154 Y95.151 E14.81221
G1 X132.305 Y95.061 E14.85061
G1 X132.947 Y95.05 E14.87197
G1 X136.993 Y95.05 E15.00654
G1 X137.837 Y95.061 E15.03461
G1 X138.739 Y95.114 E15.06466
G1 X139.632 Y95.246 E15.09469
G1 X140.51 Y95.457 E15.12472
G1 X141.366 Y95.745 E15.15476
G1 X142.193 Y96.107 E15.18479
G1 X142.985 Y96.542 E15.21484
G1 X143.736 Y97.044 E15.24488
G1 X144.439 Y97.611 E15.27492
G1 X145.089 Y98.238 E15.30496
G1 X145.681 Y98.92 E15.335
G1 X146.211 Y99.651 E15.36503
G1 X146.673 Y100.427 E15.39507
G1 X147.066 Y101.24 E15.4251
G1 X147.384 Y102.085 E15.45513
G1 X147.627 Y102.955 E15.48518
G1 X147.792 Y103.843 E15.51522
G1 X147.887 Y104.973 E15.55293
G1 X147.9 Y105.58 E15.57313
G1 X147.899 Y129.14 E16.35673
G1 X147.89 Y129.867 E16.38092
G1 X147.839 Y130.769 E16.41096
G1 X147.708 Y131.663 E16.44102
G1 X147.499 Y132.541 E16.47104
G1 X147.213 Y133.398 E16.50108
G1 X146.852 Y134.226 E16.53113
G1 X146.42 Y135.018 E16.56113
G1 X145.919 Y135.77 E16.59119
G1 X145.353 Y136.474 E16.62123
G1 X144.728 Y137.125 E16.65125
G1 X144.047 Y137.719 E16.6813
G1 X143.316 Y138.25 E16.71135
G1 X142.542 Y138.714 E16.74137
G1 X141.729 Y139.108 E16.77142
G1 X140.885 Y139.428 E16.80144
G1 X140.015 Y139.673 E16.8315
G1 X139.128 Y139.839 E16.86151
G1 X137.977 Y139.937 E16.89994
G1 X137.37 Y139.95 E16.92013
G1 X97.975 Y139.949 E18.23041
G1 X97.277 Y139.94 E18.25363
G1 X96.376 Y139.889 E18.28365
G1 X95.482 Y139.757 E18.3137
G1 X94.604 Y139.548 E18.34372
G1 X93.747 Y139.261 E18.37378
G1 X92.92 Y138.9 E18.40379
G1 X92.127 Y138.467 E18.43384
G1 X91.376 Y137.966 E18.46387
G1 X90.672 Y137.4 E18.49391
G1 X90.021 Y136.774 E18.52395
G1 X89.428 Y136.093 E18.55399
G1 X88.898 Y135.362 E18.58402
G1 X88.434 Y134.587 E18.61406
G1 X88.04 Y133.774 E18.64411
G1 X87.72 Y132.93 E18.67413
G1 X87.476 Y132.06 E18.70418
G1 X87.31 Y131.172 E18.73423
G1 X87.213 Y130.017 E18.77278
G1 X87.2 Y129.408 E18.79304
G1 X87.201 Y105.786 E19.57871
G1 F2700 E14.57871
;MESH:camera_adapter_front_2.stl
G0 F6000 X96.735 Y105.786
G0 X97.83 Y105.786
G0 X97.98 Y129.17
G1 F2700 E19.57871
G0 F6000 X97.6 Y129.55
;TYPE:WALL-OUTER
G1 F1200 X137.5 Y129.55 E20.90579
G1 X137.5 Y107.475 E21.64001
G1 X137.5 Y105.45 E21.70736
G1 X134.25 Y105.45 E21.81546
G1 F1165 X134.001 Y105.462 E21.824
G1 F1098.4 X133.751 Y105.475 E21.83309
G1 F1039 X133.501 Y105.487 E21.84271
G1 F985.6 X133.251 Y105.5 E21.85285
G1 F961.9 X132.533 Y105.5 E21.88264
G1 X132.339 Y105.584 E21.89141
G1 X132.26 Y105.75 E21.89904
G1 X132.335 Y105.912 E21.90644
G1 X132.529 Y106 E21.91528
G1 X133.251 Y106 E21.94524
G1 F1066.7 X133.45 Y106.25 E21.9572
G1 F1200 X133.45 Y109.45 E22.06363
G1 X133.407 Y109.575 E22.06802
G1 X133.25 Y109.65 E22.07381
G1 X130.45 Y109.65 E22.16694
G1 X130.45 Y112.25 E22.25342
G1 X134.7 Y112.25 E22.39477
G1 X134.824 Y112.292 E22.39913
G1 X134.9 Y112.45 E22.40496
G1 X134.9 Y126.75 E22.88058
G1 X134.842 Y126.892 E22.88568
G1 X134.7 Y126.95 E22.89078
G1 X131.7 Y126.95 E22.99056
G1 X131.54 Y126.87 E22.99651
G1 X131.5 Y126.675 E23.00313
G1 X131.5 Y116.95 E23.32659
G1 X103.6 Y116.95 E24.25455
G1 X103.6 Y126.75 E24.58049
G1 X103.56 Y126.87 E24.5847
G1 X103.435 Y126.948 E24.5896
G1 X103.4 Y126.95 E24.59077
G1 X100.4 Y126.95 E24.69055
G1 X100.258 Y126.892 E24.69565
G1 X100.2 Y126.75 E24.70075
G1 X100.2 Y112.45 E25.17637
G1 X100.276 Y112.292 E25.1822
G1 X100.4 Y112.25 E25.18656
G1 X104.65 Y112.25 E25.32791
G1 X104.65 Y109.65 E25.41439
G1 X101.85 Y109.65 E25.50752
G1 X101.693 Y109.575 E25.51331
G1 X101.65 Y109.45 E25.5177
G1 X101.65 Y106.25 E25.62413
G1 F1061.9 X101.806 Y106.001 E25.63518
G1 F956.2 X102.567 Y106 E25.66694
G1 F960 X102.761 Y105.913 E25.67578
G1 X102.84 Y105.75 E25.68331
G1 X102.764 Y105.589 E25.69071
G1 X102.57 Y105.501 E25.69957
G1 F956.2 X101.763 Y105.502 E25.73326
G1 F987.7 X101.46 Y105.486 E25.74552
G1 F1061.9 X101.156 Y105.469 E25.75696
G1 F1151.1 X100.852 Y105.452 E25.76752
G1 F1200 X97.6 Y105.45 E25.87568
G1 X97.6 Y129.55 E26.67725
G0 F6000 X98 Y129.15
;TYPE:WALL-INNER
G1 F1200 X137.1 Y129.15 E27.97772
G1 X137.1 Y107.475 E28.69864
G1 X137.1 Y105.85 E28.75268
G1 X133.451 Y105.85 E28.87405
G1 X133.85 Y106.25 E28.89284
G1 X133.85 Y109.45 E28.99927
G1 X133.778 Y109.737 E29.00911
G1 X133.524 Y109.984 E29.0209
G1 X133.25 Y110.05 E29.03027
G1 X130.85 Y110.05 E29.1101
G1 X130.85 Y111.85 E29.16996
G1 X134.7 Y111.85 E29.29802
G1 X134.883 Y111.878 E29.30417
G1 X135.071 Y111.977 E29.31124
G1 X135.234 Y112.174 E29.31974
G1 X135.3 Y112.45 E29.32918
G1 X135.3 Y126.75 E29.8048
G1 X135.251 Y126.989 E29.81292
G1 X135.125 Y127.175 E29.82039
G1 X134.939 Y127.301 E29.82786
G1 X134.7 Y127.35 E29.83598
G1 X131.7 Y127.35 E29.93576
G1 X131.417 Y127.28 E29.94545
G1 X131.22 Y127.11 E29.95411
G1 X131.123 Y126.919 E29.96123
G1 X131.1 Y126.675 E29.96938
G1 X131.1 Y117.35 E30.27954
G1 X104 Y117.35 E31.18088
G1 X104 Y126.75 E31.49353
G1 X103.977 Y126.919 E31.4992
G1 X103.88 Y127.11 E31.50633
G1 X103.683 Y127.28 E31.51498
G1 X103.4 Y127.35 E31.52468
G1 X100.4 Y127.35 E31.62446
G1 X100.161 Y127.301 E31.63257
G1 X99.975 Y127.175 E31.64005
G1 X99.849 Y126.989 E31.64752
G1 X99.8 Y126.75 E31.65563
G1 X99.8 Y112.45 E32.13125
G1 X99.866 Y112.174 E32.14069
G1 X100.029 Y111.977 E32.1492
G1 X100.297 Y111.858 E32.15895
G1 X100.4 Y111.85 E32.16238
G1 X104.25 Y111.85 E32.29044
G1 X104.25 Y110.05 E32.3503
G1 X101.85 Y110.05 E32.43013
G1 X101.576 Y109.984 E32.4395
G1 X101.379 Y109.823 E32.44796
G1 X101.258 Y109.554 E32.45778
G1 X101.25 Y109.45 E32.46124
G1 X101.25 Y106.25 E32.56768
G1 X101.586 Y105.85 E32.58505
G1 X98 Y105.85 E32.70432
G1 X98 Y129.15 E33.47928
G1 F2700 E28.47928
G0 F6000 X98.01 Y129.15
G0 X109.55 Y128.95
G0 X109.552 Y127.531
G1 F2700 E33.47928
G0 F6000 X109.55 Y126.95
;TYPE:WALL-OUTER
G1 F1200 X109.39 Y126.87 E33.48523
G1 X109.35 Y126.675 E33.49185
G1 X109.35 Y119.75 E33.72218
G1 X109.39 Y119.63 E33.72639
G1 X109.515 Y119.552 E33.73129
G1 X109.55 Y119.55 E33.73245
G1 X125.55 Y119.55 E34.26462
G1 X125.71 Y119.63 E34.27057
G1 X125.75 Y119.825 E34.27719
G1 X125.75 Y126.75 E34.50751
G1 X125.71 Y126.87 E34.51172
G1 X125.585 Y126.948 E34.51662
G1 X125.55 Y126.95 E34.51779
G1 X109.55 Y126.95 E35.04995
G0 F6000 X109.55 Y127.35
;TYPE:WALL-INNER
G1 F1200 X109.267 Y127.28 E35.05965
G1 X109.07 Y127.11 E35.0683
G1 X108.973 Y126.919 E35.07543
G1 X108.95 Y126.675 E35.08358
G1 X108.95 Y119.75 E35.3139
G1 X108.973 Y119.581 E35.31958
G1 X109.07 Y119.39 E35.3267
G1 X109.267 Y119.22 E35.33536
G1 X109.55 Y119.15 E35.34505
G1 X125.55 Y119.15 E35.87721
G1 X125.833 Y119.22 E35.88691
G1 X126.03 Y119.39 E35.89556
G1 X126.127 Y119.581 E35.90269
G1 X126.15 Y119.825 E35.91084
G1 X126.15 Y126.75 E36.14117
G1 X126.127 Y126.919 E36.14684
G1 X126.03 Y127.11 E36.15397
G1 X125.833 Y127.28 E36.16262
G1 X125.654 Y127.342 E36.16892
G1 X125.55 Y127.35 E36.17239
G1 X109.55 Y127.35 E36.70455
G0 F6000 X109.555 Y127.71
;TYPE:SKIN
G1 F1200 X109.144 Y127.616 E36.71857
G1 X108.812 Y127.359 E36.73254
G1 X108.64 Y127.053 E36.74421
G1 X108.591 Y126.774 E36.75364
G1 X108.59 Y119.756 E36.98706
G1 X108.64 Y119.447 E36.99747
G1 X108.764 Y119.202 E37.0066
G1 X109.06 Y118.927 E37.02004
G1 X109.507 Y118.795 E37.03554
G1 X109.555 Y118.79 E37.03714
G1 X125.545 Y118.79 E37.56897
G1 X125.956 Y118.884 E37.583
G1 X126.288 Y119.141 E37.59696
G1 X126.46 Y119.447 E37.60864
G1 X126.509 Y119.726 E37.61806
G1 X126.51 Y126.744 E37.85148
G1 X126.46 Y127.053 E37.86189
G1 X126.336 Y127.298 E37.87102
G1 X126.04 Y127.573 E37.88446
G1 X125.593 Y127.705 E37.89996
G1 X125.545 Y127.71 E37.90157
G1 X109.555 Y127.71 E38.4334
G1 F2700 E33.4334
G0 F6000 X109.555 Y127.449
G0 X108.8 Y126.97
G0 X104.169 Y126.975
G0 X104.009 Y127.206
G0 X103.399 Y127.511
G0 X102.205 Y127.561
G0 X98.1 Y128.789
G1 F2700 E38.4334
G0 F6000 X98.361 Y128.789
G1 F1200 X103.523 Y128.79 E38.60509
G1 X104.67 Y128.789 E38.64323
G1 X109.002 Y128.79 E38.78732
G1 X136.74 Y128.79 E39.70989
G1 X136.74 Y107.475 E40.41883
G1 X136.74 Y106.21 E40.4609
G1 X134.187 Y106.21 E40.54581
G1 X134.21 Y106.267 E40.54786
G1 X134.21 Y109.447 E40.65363
G1 X134.157 Y109.757 E40.66409
G1 X134.022 Y110.019 E40.67389
G1 X133.723 Y110.281 E40.68711
G1 X133.292 Y110.405 E40.70203
G1 X133.245 Y110.41 E40.7036
G1 X131.21 Y110.41 E40.77128
G1 X131.21 Y111.49 E40.80721
G1 X134.697 Y111.49 E40.92318
G1 X134.963 Y111.528 E40.93212
G1 X135.259 Y111.671 E40.94305
G1 X135.53 Y111.974 E40.95657
G1 X135.655 Y112.405 E40.9715
G1 X135.66 Y112.453 E40.97311
