;FLAVOR:Marlin
;TIME:10558
;Filament used: 7.24781m
;Layer height: 0.2
;MINX:43.514
;MINY:67.137
;MINZ:0.2
;MAXX:191.489
;MAXY:166.418
;MAXZ:30
;Generated with Cura_SteamEngine 5.0.0
M140 S50
M105
M190 S50
M104 S200
M105
M109 S200
M82 ;absolute extrusion mode
; Ender 3 Custom Start G-code
G92 E0 ; Reset Extruder
G28 ; Home all axes
G1 Z2.0 F3000 ; Move Z Axis up little to prevent scratching of Heat Bed
G1 X0.1 Y20 Z0.3 F5000.0 ; Move to start position
G1 X0.1 Y200.0 Z0.3 F1500.0 E15 ; Draw the first line
G1 X0.4 Y200.0 Z0.3 F5000.0 ; Move to side a little
G1 X0.4 Y20 Z0.3 F1500.0 E30 ; Draw the second line
G92 E0 ; Reset Extruder
G1 Z2.0 F3000 ; Move Z Axis up little to prevent scratching of Heat Bed
G1 X5 Y20 Z0.3 F5000.0 ; Move over to prevent blob squish
G92 E0
G92 E0
G1 F2700 E-5
;LAYER_COUNT:150
;LAYER:0
M107
G0 F6000 X59.252 Y69.976 Z0.2
G0 X54.837 Y74.996
;TYPE:SKIRT
G1 F2700 E0
G1 F1200 X55.088 Y74.675 E0.01355
G1 X56.259 Y73.237 E0.07523
G1 X56.543 Y72.902 E0.08984
G1 X58.1 Y71.147 E0.16787
G1 X58.582 Y70.633 E0.19131
G1 X59.252 Y69.976 E0.22252
G1 X59.976 Y69.38 E0.25371
G1 X60.748 Y68.847 E0.28491
G1 X61.562 Y68.382 E0.31609
G1 X62.413 Y67.988 E0.34728
G1 X63.294 Y67.667 E0.37847
G1 X64.2 Y67.423 E0.40968
G1 X65.123 Y67.257 E0.44087
G1 X66.384 Y67.159 E0.48294
G1 X67.599 Y67.137 E0.52335
G1 X82.721 Y67.137 E1.02631
G1 X83.6 Y67.149 E1.05555
G1 X84.536 Y67.204 E1.08674
G1 X85.464 Y67.338 E1.11792
G1 X86.378 Y67.551 E1.14914
G1 X86.955 Y67.729 E1.16922
G1 X87.669 Y67.971 E1.19429
G1 X89.131 Y68.486 E1.24585
G1 X91.487 Y69.241 E1.32814
G1 X93.932 Y69.95 E1.41281
G1 X96.377 Y70.584 E1.49682
G1 X98.841 Y71.149 E1.5809
G1 X101.293 Y71.638 E1.66406
G1 X103.768 Y72.061 E1.74757
G1 X106.258 Y72.414 E1.83122
G1 X108.782 Y72.699 E1.9157
G1 X111.257 Y72.907 E1.99831
G1 X113.787 Y73.048 E2.08259
G1 X116.309 Y73.118 E2.1665
G1 X118.833 Y73.116 E2.25045
G1 X121.321 Y73.044 E2.33323
G1 X123.839 Y72.899 E2.41712
G1 X126.364 Y72.683 E2.50141
G1 X128.861 Y72.397 E2.585
G1 X131.364 Y72.039 E2.6691
G1 X133.818 Y71.616 E2.75193
G1 X136.28 Y71.121 E2.83545
G1 X138.753 Y70.551 E2.91986
G1 X141.179 Y69.917 E3.00326
G1 X143.588 Y69.214 E3.08672
G1 X147.026 Y68.085 E3.20708
G1 X147.897 Y67.779 E3.23779
G1 X148.794 Y67.506 E3.26897
G1 X149.711 Y67.311 E3.30015
G1 X150.642 Y67.195 E3.33136
G1 X151.321 Y67.16 E3.35397
G1 X152.596 Y67.137 E3.39638
G1 X167.868 Y67.142 E3.90433
G1 X168.514 Y67.151 E3.92582
G1 X169.451 Y67.204 E3.95704
G1 X170.379 Y67.337 E3.98822
G1 X171.293 Y67.548 E4.01942
G1 X172.185 Y67.836 E4.05059
G1 X173.05 Y68.199 E4.08179
G1 X173.602 Y68.479 E4.10238
G1 X174.408 Y68.958 E4.13356
G1 X175.17 Y69.505 E4.16476
G1 X175.883 Y70.114 E4.19595
G1 X176.372 Y70.598 E4.21883
G1 X177.041 Y71.304 E4.25118
G1 X177.322 Y71.613 E4.26507
G1 X178.48 Y72.932 E4.32345
G1 X178.734 Y73.231 E4.3365
G1 X179.91 Y74.671 E4.39834
G1 X180.175 Y75.009 E4.41262
G1 X181.251 Y76.437 E4.47209
G1 X181.497 Y76.776 E4.48602
G1 X182.518 Y78.244 E4.5455
G1 X182.755 Y78.6 E4.55972
G1 X183.719 Y80.108 E4.61925
G1 X183.945 Y80.478 E4.63367
G1 X184.832 Y81.994 E4.69209
G1 X185.052 Y82.388 E4.7071
G1 X185.893 Y83.971 E4.76672
G1 X186.094 Y84.369 E4.78155
G1 X186.828 Y85.897 E4.83793
G1 X187.015 Y86.308 E4.85295
G1 X187.775 Y88.072 E4.91683
G1 X187.926 Y88.439 E4.93003
G1 X188.413 Y89.703 E4.97508
G1 X188.593 Y90.213 E4.99307
G1 X189.251 Y92.186 E5.06225
G1 X189.662 Y93.562 E5.11001
G1 X189.769 Y93.953 E5.12349
G1 X190.261 Y95.914 E5.19074
G1 X190.442 Y96.751 E5.21922
G1 X190.71 Y98.111 E5.26533
G1 X190.847 Y98.918 E5.29255
G1 X191.009 Y99.966 E5.32782
G1 X191.063 Y100.365 E5.34121
G1 X191.282 Y102.284 E5.40545
G1 X191.353 Y103.153 E5.43445
G1 X191.425 Y104.255 E5.47118
G1 X191.444 Y104.662 E5.48474
G1 X191.489 Y106.258 E5.53784
G1 X191.489 Y107.286 E5.57203
G1 X191.451 Y108.838 E5.62367
G1 X191.403 Y109.7 E5.65238
G1 X191.326 Y110.802 E5.68912
G1 X191.291 Y111.2 E5.70241
G1 X191.081 Y113.115 E5.76649
G1 X190.97 Y113.898 E5.79279
G1 X190.741 Y115.323 E5.84079
G1 X190.597 Y116.082 E5.86649
G1 X190.325 Y117.406 E5.91144
G1 X190.132 Y118.232 E5.93966
G1 X189.8 Y119.543 E5.98464
G1 X189.658 Y120.039 E6.0018
G1 X189.052 Y122.041 E6.07137
G1 X188.924 Y122.438 E6.08524
G1 X188.558 Y123.5 E6.1226
G1 X188.386 Y123.965 E6.13909
G1 X187.605 Y125.938 E6.20967
G1 X187.417 Y126.384 E6.22577
G1 X186.706 Y127.972 E6.28364
G1 X186.511 Y128.384 E6.2988
G1 X185.738 Y129.935 E6.35644
G1 X185.535 Y130.322 E6.37097
G1 X184.689 Y131.863 E6.42944
G1 X184.463 Y132.255 E6.44449
G1 X183.536 Y133.79 E6.50413
G1 X183.308 Y134.153 E6.51839
G1 X182.333 Y135.634 E6.57736
G1 X182.091 Y135.986 E6.59157
G1 X181.047 Y137.445 E6.65124
G1 X180.794 Y137.784 E6.66531
G1 X179.69 Y139.208 E6.72524
G1 X179.435 Y139.525 E6.73877
G1 X178.254 Y140.937 E6.8
G1 X177.983 Y141.249 E6.81374
G1 X176.709 Y142.661 E6.87699
G1 X176.432 Y142.957 E6.89048
G1 X175.134 Y144.293 E6.95243
G1 X174.861 Y144.564 E6.96523
G1 X173.47 Y145.899 E7.02935
G1 X173.178 Y146.17 E7.0426
G1 X171.782 Y147.416 E7.10484
G1 X171.495 Y147.663 E7.11743
G1 X169.954 Y148.946 E7.18412
G1 X169.663 Y149.18 E7.19654
G1 X167.91 Y150.534 E7.27022
G1 X165.987 Y151.923 E7.34911
G1 X164.541 Y152.905 E7.40725
G1 X164.002 Y153.257 E7.42866
G1 X162.591 Y154.149 E7.48418
G1 X162.04 Y154.485 E7.50565
G1 X160.019 Y155.664 E7.58347
G1 X157.976 Y156.774 E7.6608
G1 X156.29 Y157.631 E7.72371
G1 X154.334 Y158.564 E7.79579
G1 X153.678 Y158.863 E7.81976
G1 X152.154 Y159.528 E7.87507
G1 X151.463 Y159.817 E7.89998
G1 X149.941 Y160.429 E7.95454
G1 X149.28 Y160.683 E7.97809
G1 X147.708 Y161.265 E8.03385
G1 X146.947 Y161.533 E8.06068
G1 X145.489 Y162.025 E8.11186
G1 X144.655 Y162.293 E8.141
G1 X143.161 Y162.75 E8.19296
G1 X142.311 Y162.997 E8.2224
G1 X140.876 Y163.391 E8.2719
G1 X140.012 Y163.616 E8.30159
G1 X138.493 Y163.99 E8.35362
G1 X137.598 Y164.197 E8.38418
G1 X136.128 Y164.515 E8.4342
G1 X135.286 Y164.686 E8.46278
G1 X133.709 Y164.984 E8.51615
G1 X132.839 Y165.135 E8.54552
G1 X131.33 Y165.378 E8.59636
G1 X130.434 Y165.51 E8.62648
G1 X128.891 Y165.716 E8.67826
G1 X127.986 Y165.823 E8.70857
G1 X126.461 Y165.984 E8.75957
G1 X125.586 Y166.065 E8.7888
G1 X124.033 Y166.19 E8.84062
G1 X123.037 Y166.255 E8.87382
G1 X121.6 Y166.329 E8.92167
G1 X120.607 Y166.368 E8.95473
G1 X119.167 Y166.406 E9.00264
G1 X118.169 Y166.418 E9.03583
G1 X116.674 Y166.417 E9.08556
G1 X115.748 Y166.403 E9.11636
G1 X114.171 Y166.361 E9.16883
G1 X113.267 Y166.324 E9.19892
G1 X111.777 Y166.243 E9.24855
G1 X110.819 Y166.18 E9.28049
G1 X109.262 Y166.053 E9.33244
G1 X108.37 Y165.969 E9.36224
G1 X106.908 Y165.812 E9.41115
G1 X105.901 Y165.69 E9.44489
G1 X104.433 Y165.492 E9.49416
G1 X103.474 Y165.349 E9.5264
G1 X102.045 Y165.116 E9.57456
G1 X101.145 Y164.958 E9.60495
G1 X99.593 Y164.663 E9.6575
G1 X98.71 Y164.483 E9.68747
G1 X97.195 Y164.152 E9.73905
G1 X96.385 Y163.962 E9.76672
G1 X94.827 Y163.576 E9.8201
G1 X93.955 Y163.346 E9.8501
G1 X92.533 Y162.951 E9.89919
G1 X91.664 Y162.697 E9.9293
G1 X90.216 Y162.252 E9.97968
G1 X89.351 Y161.972 E10.00992
G1 X87.898 Y161.48 E10.06094
G1 X87.146 Y161.212 E10.0875
G1 X85.58 Y160.631 E10.14305
G1 X84.868 Y160.355 E10.16845
G1 X83.398 Y159.761 E10.22118
G1 X82.708 Y159.469 E10.2461
G1 X81.182 Y158.799 E10.30153
G1 X80.506 Y158.491 E10.32624
G1 X79.028 Y157.789 E10.38066
G1 X78.415 Y157.485 E10.40342
G1 X76.874 Y156.697 E10.46099
G1 X76.263 Y156.371 E10.48402
G1 X74.257 Y155.252 E10.56042
G1 X72.807 Y154.393 E10.61647
G1 X72.284 Y154.07 E10.63692
G1 X70.798 Y153.126 E10.69547
G1 X70.273 Y152.779 E10.7164
G1 X68.782 Y151.76 E10.77647
G1 X66.819 Y150.33 E10.85725
G1 X64.944 Y148.865 E10.93639
G1 X63.353 Y147.533 E11.0054
G1 X63.068 Y147.285 E11.01797
G1 X61.656 Y146.014 E11.08116
G1 X60.05 Y144.475 E11.15514
G1 X59.778 Y144.204 E11.16791
G1 X58.475 Y142.858 E11.23022
G1 X58.201 Y142.564 E11.24358
G1 X57.017 Y141.248 E11.30246
G1 X56.756 Y140.947 E11.31571
G1 X55.551 Y139.506 E11.37819
G1 X55.295 Y139.189 E11.39174
G1 X54.206 Y137.784 E11.45087
G1 X53.952 Y137.443 E11.46501
G1 X52.901 Y135.973 E11.52511
G1 X52.661 Y135.623 E11.53923
G1 X51.669 Y134.116 E11.59923
G1 X51.433 Y133.741 E11.61397
G1 X50.524 Y132.231 E11.67259
G1 X50.31 Y131.86 E11.68684
G1 X49.47 Y130.333 E11.7448
G1 X49.258 Y129.928 E11.76001
G1 X48.475 Y128.353 E11.81851
G1 X48.283 Y127.945 E11.83351
G1 X47.364 Y125.876 E11.9088
G1 X46.843 Y124.584 E11.95514
G1 X46.58 Y123.874 E11.98032
G1 X46.202 Y122.819 E12.01759
G1 X46.034 Y122.314 E12.0353
G1 X45.35 Y120.068 E12.11339
G1 X45.231 Y119.645 E12.128
G1 X44.95 Y118.57 E12.16496
G1 X44.852 Y118.167 E12.17875
G1 X44.44 Y116.281 E12.24296
G1 X44.28 Y115.425 E12.27192
G1 X44.054 Y114.073 E12.31751
G1 X43.947 Y113.306 E12.34327
G1 X43.766 Y111.793 E12.39395
G1 X43.628 Y110.207 E12.4469
G1 X43.569 Y109.206 E12.48025
G1 X43.521 Y107.89 E12.52405
G1 X43.514 Y107.486 E12.53749
G1 X43.516 Y105.931 E12.58921
G1 X43.545 Y104.935 E12.62235
G1 X43.612 Y103.62 E12.66615
G1 X43.702 Y102.479 E12.70422
G1 X43.81 Y101.393 E12.74051
G1 X43.856 Y101.004 E12.75354
G1 X44.116 Y99.13 E12.81647
G1 X44.261 Y98.287 E12.84492
G1 X44.529 Y96.88 E12.89256
G1 X44.64 Y96.382 E12.90953
G1 X45.126 Y94.358 E12.97876
G1 X45.233 Y93.948 E12.99285
G1 X45.523 Y92.917 E13.02847
G1 X45.67 Y92.436 E13.0452
G1 X46.397 Y90.241 E13.12211
G1 X46.539 Y89.84 E13.13626
G1 X47.013 Y88.584 E13.18091
G1 X47.211 Y88.104 E13.19818
G1 X47.995 Y86.288 E13.26397
G1 X48.175 Y85.894 E13.27837
G1 X48.904 Y84.373 E13.33447
G1 X49.109 Y83.966 E13.34963
G1 X49.959 Y82.366 E13.40989
G1 X50.182 Y81.966 E13.42512
G1 X51.051 Y80.483 E13.48229
G1 X51.273 Y80.121 E13.49642
G1 X52.257 Y78.581 E13.5572
G1 X52.499 Y78.217 E13.57174
G1 X53.497 Y76.784 E13.62982
G1 X53.743 Y76.446 E13.64372
G1 X54.837 Y74.996 E13.70414
G1 F2700 E8.70414
G0 F6000 X51.396 Y80.685
G1 F2700 E13.70414
G1 F1200 X51.61 Y80.337 E13.71772
G1 X52.594 Y78.797 E13.77851
G1 X52.828 Y78.446 E13.79254
G1 X53.826 Y77.013 E13.85062
G1 X54.062 Y76.687 E13.86401
G1 X55.156 Y75.237 E13.92442
G1 X55.399 Y74.928 E13.9375
G1 X56.57 Y73.49 E13.99918
G1 X56.843 Y73.167 E14.01324
G1 X58.392 Y71.42 E14.0909
G1 X58.874 Y70.906 E14.11433
G1 X59.532 Y70.263 E14.14493
G1 X60.244 Y69.679 E14.17556
G1 X61.004 Y69.159 E14.20619
G1 X61.805 Y68.706 E14.2368
G1 X62.644 Y68.325 E14.26745
G1 X63.512 Y68.019 E14.29806
G1 X64.403 Y67.788 E14.32867
G1 X65.311 Y67.636 E14.35929
G1 X66.393 Y67.559 E14.39537
G1 X67.599 Y67.537 E14.43549
G1 X82.721 Y67.537 E14.93845
G1 X83.594 Y67.549 E14.96749
G1 X84.513 Y67.604 E14.99811
G1 X85.424 Y67.737 E15.02873
G1 X86.319 Y67.95 E15.05933
G1 X86.827 Y68.107 E15.07701
G1 X87.536 Y68.348 E15.10192
G1 X88.981 Y68.857 E15.15287
G1 X91.424 Y69.64 E15.2382
G1 X93.801 Y70.329 E15.32051
G1 X96.292 Y70.975 E15.40611
G1 X98.744 Y71.537 E15.48977
G1 X101.218 Y72.031 E15.57368
G1 X103.71 Y72.457 E15.65777
G1 X106.228 Y72.814 E15.74236
G1 X108.702 Y73.093 E15.82516
G1 X111.273 Y73.309 E15.91098
G1 X113.754 Y73.448 E15.99363
G1 X116.298 Y73.518 E16.07827
G1 X118.81 Y73.516 E16.16182
G1 X121.356 Y73.442 E16.24654
G1 X123.895 Y73.297 E16.33112
G1 X126.411 Y73.081 E16.41511
G1 X128.887 Y72.798 E16.498
G1 X131.422 Y72.435 E16.58318
G1 X133.893 Y72.009 E16.66657
G1 X136.378 Y71.509 E16.75088
G1 X138.838 Y70.942 E16.83485
G1 X141.287 Y70.302 E16.91904
G1 X143.707 Y69.596 E17.00288
G1 X147.127 Y68.473 E17.12261
G1 X148.029 Y68.156 E17.15441
G1 X148.91 Y67.889 E17.18502
G1 X149.811 Y67.7 E17.21564
G1 X150.725 Y67.589 E17.24627
G1 X151.329 Y67.56 E17.26638
G1 X152.596 Y67.537 E17.30853
G1 X167.863 Y67.542 E17.81631
G1 X168.509 Y67.551 E17.8378
G1 X169.428 Y67.604 E17.86841
G1 X170.339 Y67.736 E17.89903
G1 X171.235 Y67.947 E17.92965
G1 X172.11 Y68.235 E17.96028
G1 X172.956 Y68.598 E17.9909
G1 X173.412 Y68.831 E18.00794
G1 X174.203 Y69.302 E18.03856
G1 X174.95 Y69.84 E18.06917
G1 X175.648 Y70.441 E18.09981
G1 X176.081 Y70.873 E18.12015
G1 X176.75 Y71.579 E18.1525
G1 X177.022 Y71.877 E18.16592
G1 X178.18 Y73.196 E18.2243
G1 X178.424 Y73.484 E18.23685
G1 X179.6 Y74.924 E18.29869
G1 X179.856 Y75.25 E18.31248
G1 X180.932 Y76.678 E18.37195
G1 X181.168 Y77.005 E18.38536
G1 X182.189 Y78.473 E18.44483
G1 X182.418 Y78.816 E18.45855
G1 X183.382 Y80.324 E18.51808
G1 X183.6 Y80.68 E18.53196
G1 X184.487 Y82.196 E18.59038
G1 X184.699 Y82.576 E18.60486
G1 X185.54 Y84.159 E18.66448
G1 X185.734 Y84.542 E18.67875
G1 X186.468 Y86.07 E18.73514
G1 X186.648 Y86.466 E18.7496
G1 X187.408 Y88.23 E18.81349
G1 X187.939 Y89.577 E18.86164
G1 X188.214 Y90.339 E18.88859
G1 X188.872 Y92.312 E18.95776
G1 X189.278 Y93.674 E19.00503
G1 X189.381 Y94.051 E19.01803
G1 X189.87 Y96 E19.08487
G1 X190.05 Y96.829 E19.11308
G1 X190.316 Y98.179 E19.15885
G1 X190.452 Y98.979 E19.18584
G1 X190.614 Y100.027 E19.22111
G1 X190.666 Y100.411 E19.23399
G1 X190.848 Y101.963 E19.28597
G1 X190.939 Y102.99 E19.32026
G1 X191.025 Y104.281 E19.36329
G1 X191.044 Y104.673 E19.37635
G1 X191.093 Y106.633 E19.44156
G1 X191.086 Y107.453 E19.46883
G1 X191.051 Y108.817 E19.51421
G1 X191.004 Y109.672 E19.54269
G1 X190.927 Y110.774 E19.57944
G1 X190.893 Y111.158 E19.59226
G1 X190.685 Y113.059 E19.65586
G1 X190.574 Y113.836 E19.68197
G1 X190.348 Y115.249 E19.72956
G1 X190.205 Y116.003 E19.75509
G1 X189.935 Y117.316 E19.79967
G1 X189.744 Y118.135 E19.82764
G1 X189.414 Y119.435 E19.87225
G1 X189.275 Y119.923 E19.88913
G1 X188.669 Y121.925 E19.9587
G1 X188.546 Y122.308 E19.97208
G1 X188.18 Y123.37 E20.00944
G1 X188.014 Y123.817 E20.0253
G1 X187.233 Y125.79 E20.09588
G1 X187.052 Y126.221 E20.11142
G1 X186.341 Y127.809 E20.16929
G1 X186.153 Y128.205 E20.18387
G1 X185.38 Y129.756 E20.24151
G1 X185.185 Y130.129 E20.25551
G1 X184.339 Y131.67 E20.31398
G1 X184.121 Y132.049 E20.32852
G1 X183.194 Y133.584 E20.38816
G1 X182.974 Y133.933 E20.40189
G1 X181.999 Y135.414 E20.46086
G1 X181.765 Y135.753 E20.47456
G1 X180.721 Y137.212 E20.53423
G1 X180.478 Y137.539 E20.54778
G1 X179.374 Y138.963 E20.60771
G1 X179.128 Y139.269 E20.62077
G1 X177.947 Y140.681 E20.68199
G1 X177.686 Y140.981 E20.69522
G1 X176.412 Y142.393 E20.75847
G1 X176.145 Y142.678 E20.77146
G1 X174.584 Y144.276 E20.84576
G1 X173.193 Y145.611 E20.90989
G1 X172.911 Y145.871 E20.92265
G1 X171.515 Y147.117 E20.98488
G1 X171.239 Y147.355 E20.997
G1 X169.418 Y148.864 E21.07566
G1 X167.954 Y150.001 E21.13732
G1 X166.019 Y151.411 E21.21695
G1 X164.471 Y152.471 E21.27935
G1 X163.788 Y152.919 E21.30652
G1 X162.382 Y153.808 E21.36184
G1 X161.838 Y154.14 E21.38304
G1 X160.11 Y155.153 E21.44966
G1 X158.046 Y156.284 E21.52794
G1 X156.375 Y157.143 E21.59043
G1 X154.318 Y158.13 E21.66632
G1 X153.517 Y158.496 E21.69561
G1 X151.998 Y159.159 E21.75073
G1 X151.313 Y159.446 E21.77543
G1 X149.797 Y160.056 E21.82979
G1 X149.141 Y160.308 E21.85316
G1 X147.574 Y160.888 E21.90873
G1 X146.819 Y161.154 E21.93536
G1 X145.366 Y161.644 E21.98636
G1 X144.538 Y161.911 E22.01529
G1 X143.049 Y162.366 E22.06708
G1 X142.204 Y162.611 E22.09634
G1 X140.775 Y163.004 E22.14563
G1 X139.916 Y163.228 E22.17516
G1 X138.403 Y163.6 E22.22698
G1 X137.514 Y163.806 E22.25733
G1 X136.048 Y164.123 E22.30722
G1 X135.211 Y164.293 E22.33563
G1 X133.64 Y164.59 E22.3888
G1 X132.775 Y164.74 E22.418
G1 X131.271 Y164.982 E22.46867
G1 X130.381 Y165.114 E22.4986
G1 X128.844 Y165.319 E22.55017
G1 X127.944 Y165.426 E22.58031
G1 X126.424 Y165.586 E22.63115
G1 X125.554 Y165.667 E22.66021
G1 X124.006 Y165.791 E22.71186
G1 X123.016 Y165.855 E22.74486
G1 X121.584 Y165.93 E22.79255
G1 X120.596 Y165.968 E22.82544
G1 X119.162 Y166.006 E22.87315
G1 X118.169 Y166.018 E22.90618
G1 X116.68 Y166.017 E22.9557
G1 X115.759 Y166.003 E22.98634
G1 X114.187 Y165.961 E23.03864
G1 X113.289 Y165.924 E23.06854
G1 X111.803 Y165.844 E23.11803
G1 X110.851 Y165.781 E23.14976
G1 X109.3 Y165.655 E23.20152
G1 X108.413 Y165.571 E23.23115
G1 X106.956 Y165.415 E23.27989
G1 X105.955 Y165.294 E23.31343
G1 X104.491 Y165.096 E23.36256
G1 X103.538 Y164.954 E23.39461
G1 X102.114 Y164.723 E23.44259
G1 X101.219 Y164.565 E23.47282
G1 X99.672 Y164.271 E23.52519
G1 X98.795 Y164.092 E23.55497
G1 X97.286 Y163.763 E23.60633
G1 X96.481 Y163.573 E23.63384
