;FLAVOR:Marlin
;TIME:1285
;Filament used: 0.728353m
;Layer height: 0.2
;MINX:88.9
;MINY:93.65
;MINZ:0.2
;MAXX:146.2
;MAXY:141.35
;MAXZ:4.2
;Generated with Cura_SteamEngine 5.0.0
M140 S50
M105
M190 S50
M104 S200
M105
M109 S200
M82 ;absolute extrusion mode
; Ender 3 Custom Start G-code
G92 E0 ; Reset Extruder
G28 ; Home all axes
G1 Z2.0 F3000 ; Move Z Axis up little to prevent scratching of Heat Bed
G1 X0.1 Y20 Z0.3 F5000.0 ; Move to start position
G1 X0.1 Y200.0 Z0.3 F1500.0 E15 ; Draw the first line
G1 X0.4 Y200.0 Z0.3 F5000.0 ; Move to side a little
G1 X0.4 Y20 Z0.3 F1500.0 E30 ; Draw the second line
G92 E0 ; Reset Extruder
G1 Z2.0 F3000 ; Move Z Axis up little to prevent scratching of Heat Bed
G1 X5 Y20 Z0.3 F5000.0 ; Move over to prevent blob squish
G92 E0
G92 E0
G1 F2700 E-5
;LAYER_COUNT:21
;LAYER:0
M107
G0 F6000 X92.098 Y96.914 Z0.2
G0 X88.901 Y105.175
;TYPE:SKIRT
G1 F2700 E0
G1 F1200 X88.91 Y104.51 E0.02212
G1 X88.963 Y103.574 E0.0533
G1 X89.095 Y102.645 E0.08451
G1 X89.306 Y101.731 E0.11571
G1 X89.594 Y100.839 E0.14689
G1 X89.957 Y99.974 E0.17809
G1 X90.392 Y99.143 E0.20928
G1 X90.896 Y98.353 E0.24045
G1 X91.466 Y97.608 E0.27165
G1 X92.098 Y96.914 E0.30287
G1 X92.786 Y96.277 E0.33405
G1 X93.526 Y95.701 E0.36524
G1 X94.312 Y95.189 E0.39644
G1 X95.139 Y94.747 E0.42763
G1 X96.001 Y94.377 E0.45883
G1 X96.891 Y94.081 E0.49003
G1 X97.803 Y93.863 E0.52122
G1 X98.73 Y93.722 E0.5524
G1 X99.601 Y93.663 E0.58144
G1 X100.23 Y93.65 E0.60236
G1 X134.493 Y93.65 E1.74196
G1 X135.349 Y93.661 E1.77043
G1 X136.285 Y93.715 E1.80161
G1 X137.213 Y93.847 E1.83279
G1 X138.127 Y94.059 E1.86399
G1 X139.019 Y94.348 E1.89518
G1 X139.884 Y94.711 E1.92638
G1 X140.714 Y95.147 E1.95756
G1 X141.505 Y95.652 E1.98878
G1 X142.249 Y96.223 E2.01997
G1 X142.942 Y96.855 E2.05117
G1 X143.579 Y97.543 E2.08235
G1 X144.154 Y98.284 E2.11355
G1 X144.665 Y99.07 E2.14473
G1 X145.107 Y99.898 E2.17595
G1 X145.476 Y100.76 E2.20713
G1 X145.771 Y101.65 E2.23832
G1 X145.989 Y102.562 E2.26951
G1 X146.129 Y103.49 E2.30072
G1 X146.187 Y104.351 E2.32942
G1 X146.2 Y104.98 E2.35035
G1 X146.199 Y106.562 E2.40296
G1 X146.189 Y107.257 E2.42608
G1 X146.189 Y109.908 E2.51426
G1 X146.2 Y110.763 E2.5427
G1 X146.199 Y112.362 E2.59588
G1 X146.189 Y113.057 E2.619
G1 X146.189 Y115.708 E2.70717
G1 X146.2 Y116.563 E2.73561
G1 X146.199 Y118.162 E2.78879
G1 X146.189 Y118.857 E2.81191
G1 X146.189 Y121.508 E2.90008
G1 X146.2 Y122.363 E2.92852
G1 X146.199 Y123.962 E2.98171
G1 X146.189 Y124.657 E3.00482
G1 X146.189 Y127.308 E3.093
G1 X146.2 Y128.163 E3.12144
G1 X146.199 Y129.75 E3.17422
G1 X146.19 Y130.477 E3.1984
G1 X146.139 Y131.414 E3.22961
G1 X146.007 Y132.342 E3.26079
G1 X145.798 Y133.256 E3.29197
G1 X145.511 Y134.149 E3.32317
G1 X145.149 Y135.015 E3.35439
G1 X144.715 Y135.846 E3.38557
G1 X144.211 Y136.637 E3.41677
G1 X143.642 Y137.382 E3.44795
G1 X143.011 Y138.077 E3.47917
G1 X142.324 Y138.715 E3.51035
G1 X141.585 Y139.292 E3.54153
G1 X140.799 Y139.804 E3.57273
G1 X139.973 Y140.247 E3.60391
G1 X139.111 Y140.619 E3.63513
G1 X138.222 Y140.915 E3.6663
G1 X137.31 Y141.135 E3.6975
G1 X136.383 Y141.276 E3.72869
G1 X135.499 Y141.337 E3.75816
G1 X134.87 Y141.35 E3.77909
G1 X100.465 Y141.349 E4.9234
G1 X99.767 Y141.34 E4.94662
G1 X98.831 Y141.288 E4.9778
G1 X97.902 Y141.156 E5.00901
G1 X96.988 Y140.946 E5.0402
G1 X96.095 Y140.659 E5.0714
G1 X95.23 Y140.296 E5.1026
G1 X94.399 Y139.862 E5.13378
G1 X93.608 Y139.358 E5.16497
G1 X92.863 Y138.788 E5.19617
G1 X92.169 Y138.157 E5.22737
G1 X91.532 Y137.47 E5.25853
G1 X90.955 Y136.73 E5.28974
G1 X90.443 Y135.944 E5.32094
G1 X90 Y135.117 E5.35215
G1 X89.629 Y134.256 E5.38333
G1 X89.333 Y133.366 E5.41452
G1 X89.114 Y132.454 E5.44572
G1 X88.973 Y131.527 E5.47691
G1 X88.913 Y130.638 E5.50654
G1 X88.9 Y130.008 E5.5275
G1 X88.901 Y128.413 E5.58055
G1 X88.911 Y127.737 E5.60304
G1 X88.911 Y125.092 E5.69101
G1 X88.9 Y124.237 E5.71945
G1 X88.901 Y122.613 E5.77346
G1 X88.911 Y121.937 E5.79595
G1 X88.911 Y119.292 E5.88392
G1 X88.9 Y118.437 E5.91236
G1 X88.901 Y116.813 E5.96638
G1 X88.911 Y116.137 E5.98886
G1 X88.911 Y113.492 E6.07684
G1 X88.9 Y112.637 E6.10528
G1 X88.901 Y111.013 E6.15929
G1 X88.911 Y110.337 E6.18178
G1 X88.911 Y107.692 E6.26975
G1 X88.9 Y106.837 E6.29819
G1 X88.901 Y105.175 E6.35347
G0 F6000 X89.3 Y106.837
G1 F1200 X89.301 Y105.181 E6.40855
G1 X89.31 Y104.516 E6.43067
G1 X89.362 Y103.596 E6.46131
G1 X89.494 Y102.685 E6.49193
G1 X89.705 Y101.789 E6.52255
G1 X89.992 Y100.914 E6.55318
G1 X90.355 Y100.068 E6.58379
G1 X90.789 Y99.256 E6.61442
G1 X91.292 Y98.485 E6.64504
G1 X91.861 Y97.761 E6.67566
G1 X92.489 Y97.089 E6.70625
G1 X93.174 Y96.473 E6.73689
G1 X93.91 Y95.92 E6.76751
G1 X94.691 Y95.432 E6.79814
G1 X95.511 Y95.014 E6.82876
G1 X96.365 Y94.669 E6.85939
G1 X97.245 Y94.399 E6.89001
G1 X98.145 Y94.207 E6.92061
G1 X99.059 Y94.093 E6.95125
G1 X99.612 Y94.063 E6.96967
G1 X100.23 Y94.05 E6.99023
G1 X134.493 Y94.05 E8.12982
G1 X135.343 Y94.061 E8.15809
G1 X136.262 Y94.114 E8.18871
G1 X137.173 Y94.247 E8.21933
G1 X138.069 Y94.458 E8.24995
G1 X138.943 Y94.746 E8.28056
G1 X139.79 Y95.109 E8.3112
G1 X140.601 Y95.544 E8.34181
G1 X141.371 Y96.048 E8.37242
G1 X142.095 Y96.617 E8.40305
G1 X142.767 Y97.247 E8.43369
G1 X143.382 Y97.932 E8.46431
G1 X143.935 Y98.668 E8.49492
G1 X144.422 Y99.449 E8.52554
G1 X144.839 Y100.27 E8.55616
G1 X145.184 Y101.124 E8.5868
G1 X145.453 Y102.004 E8.6174
G1 X145.645 Y102.905 E8.64804
G1 X145.758 Y103.818 E8.67864
G1 X145.796 Y104.682 E8.70741
G1 X145.799 Y106.557 E8.76977
G1 X145.789 Y107.252 E8.79289
G1 X145.789 Y109.914 E8.88143
G1 X145.8 Y110.763 E8.90967
G1 X145.799 Y112.357 E8.96268
G1 X145.789 Y113.052 E8.9858
G1 X145.789 Y115.714 E9.07434
G1 X145.8 Y116.563 E9.10258
G1 X145.799 Y118.157 E9.1556
G1 X145.789 Y118.852 E9.17872
G1 X145.789 Y121.514 E9.26725
G1 X145.8 Y122.363 E9.29549
G1 X145.799 Y123.957 E9.34851
G1 X145.789 Y124.652 E9.37163
G1 X145.789 Y127.314 E9.46017
G1 X145.8 Y128.163 E9.48841
G1 X145.799 Y129.745 E9.54103
G1 X145.79 Y130.472 E9.56521
G1 X145.739 Y131.391 E9.59582
G1 X145.608 Y132.303 E9.62646
G1 X145.398 Y133.199 E9.65707
G1 X145.112 Y134.074 E9.68769
G1 X144.751 Y134.921 E9.71831
G1 X144.317 Y135.733 E9.74894
G1 X143.815 Y136.505 E9.77957
G1 X143.247 Y137.23 E9.8102
G1 X142.619 Y137.903 E9.84081
G1 X141.935 Y138.519 E9.87143
G1 X141.2 Y139.073 E9.90204
G1 X140.42 Y139.562 E9.93266
G1 X139.6 Y139.981 E9.96329
G1 X138.747 Y140.327 E9.99391
G1 X137.867 Y140.598 E10.02453
G1 X136.967 Y140.791 E10.05515
G1 X136.053 Y140.906 E10.08578
G1 X135.488 Y140.937 E10.10461
G1 X134.87 Y140.95 E10.12516
G1 X100.47 Y140.949 E11.26931
G1 X99.772 Y140.94 E11.29253
G1 X98.853 Y140.888 E11.32315
G1 X97.942 Y140.757 E11.35376
G1 X97.046 Y140.547 E11.38437
G1 X96.171 Y140.26 E11.41499
G1 X95.324 Y139.898 E11.44563
G1 X94.512 Y139.464 E11.47625
G1 X93.741 Y138.962 E11.50685
G1 X93.016 Y138.394 E11.53749
G1 X92.343 Y137.765 E11.56812
G1 X91.728 Y137.081 E11.59872
G1 X91.174 Y136.346 E11.62933
G1 X90.686 Y135.565 E11.65996
G1 X90.267 Y134.745 E11.69059
G1 X89.921 Y133.892 E11.7212
G1 X89.651 Y133.012 E11.75182
G1 X89.458 Y132.111 E11.78247
G1 X89.344 Y131.198 E11.81307
G1 X89.313 Y130.627 E11.83209
G1 X89.3 Y130.008 E11.85268
G1 X89.301 Y128.419 E11.90553
G1 X89.311 Y127.743 E11.92802
G1 X89.311 Y125.086 E12.01639
G1 X89.3 Y124.237 E12.04463
G1 X89.301 Y122.619 E12.09845
G1 X89.311 Y121.943 E12.12093
G1 X89.311 Y119.286 E12.2093
G1 X89.3 Y118.437 E12.23754
G1 X89.301 Y116.819 E12.29136
G1 X89.311 Y116.143 E12.31385
G1 X89.311 Y113.486 E12.40222
G1 X89.3 Y112.637 E12.43046
G1 X89.301 Y111.019 E12.48427
G1 X89.311 Y110.343 E12.50676
G1 X89.311 Y107.686 E12.59513
G1 X89.3 Y106.837 E12.62337
G0 F6000 X89.7 Y106.837
G1 F1200 X89.701 Y105.186 E12.67828
G1 X89.71 Y104.521 E12.7004
G1 X89.762 Y103.619 E12.73045
G1 X89.894 Y102.726 E12.76048
G1 X90.104 Y101.848 E12.7905
G1 X90.391 Y100.991 E12.82056
G1 X90.753 Y100.164 E12.85059
G1 X91.186 Y99.372 E12.88061
G1 X91.688 Y98.621 E12.91066
G1 X92.255 Y97.917 E12.94072
G1 X92.881 Y97.267 E12.97074
G1 X93.562 Y96.674 E13.00077
G1 X94.294 Y96.144 E13.03083
G1 X95.069 Y95.681 E13.06086
G1 X95.882 Y95.288 E13.09089
G1 X96.727 Y94.968 E13.12094
G1 X97.596 Y94.725 E13.15095
G1 X98.484 Y94.559 E13.181
G1 X99.623 Y94.463 E13.21902
G1 X100.23 Y94.45 E13.23921
G1 X134.493 Y94.45 E14.3788
G1 X135.337 Y94.461 E14.40688
G1 X136.239 Y94.514 E14.43693
G1 X137.132 Y94.646 E14.46695
G1 X138.01 Y94.857 E14.49699
G1 X138.866 Y95.145 E14.52703
G1 X139.693 Y95.507 E14.55705
G1 X140.485 Y95.942 E14.58711
G1 X141.236 Y96.444 E14.61715
G1 X141.939 Y97.011 E14.64719
G1 X142.589 Y97.638 E14.67723
G1 X143.181 Y98.32 E14.70727
G1 X143.711 Y99.051 E14.7373
G1 X144.173 Y99.827 E14.76733
G1 X144.566 Y100.64 E14.79737
G1 X144.884 Y101.485 E14.8274
G1 X145.127 Y102.355 E14.85744
G1 X145.292 Y103.243 E14.88748
G1 X145.387 Y104.373 E14.9252
G1 X145.4 Y104.98 E14.94539
G1 X145.399 Y106.551 E14.99764
G1 X145.389 Y107.246 E15.02076
G1 X145.389 Y109.92 E15.1097
G1 X145.4 Y110.763 E15.13774
G1 X145.399 Y112.351 E15.19056
G1 X145.389 Y113.046 E15.21368
G1 X145.389 Y115.72 E15.30261
G1 X145.4 Y116.563 E15.33065
G1 X145.399 Y118.151 E15.38347
G1 X145.389 Y118.846 E15.40659
G1 X145.389 Y121.52 E15.49553
G1 X145.4 Y122.363 E15.52357
G1 X145.399 Y123.951 E15.57638
G1 X145.389 Y124.646 E15.5995
G1 X145.389 Y127.32 E15.68844
G1 X145.4 Y128.163 E15.71648
G1 X145.399 Y129.74 E15.76893
G1 X145.39 Y130.467 E15.79311
G1 X145.339 Y131.369 E15.82316
G1 X145.208 Y132.263 E15.85322
G1 X144.999 Y133.141 E15.88323
G1 X144.713 Y133.998 E15.91328
G1 X144.352 Y134.826 E15.94333
G1 X143.92 Y135.618 E15.97333
G1 X143.419 Y136.37 E16.00339
G1 X142.853 Y137.074 E16.03343
G1 X142.228 Y137.725 E16.06345
G1 X141.547 Y138.319 E16.0935
G1 X140.816 Y138.85 E16.12355
G1 X140.042 Y139.314 E16.15357
G1 X139.229 Y139.708 E16.18362
G1 X138.385 Y140.028 E16.21364
G1 X137.515 Y140.273 E16.2437
G1 X136.628 Y140.439 E16.27371
G1 X135.477 Y140.537 E16.31213
G1 X134.87 Y140.55 E16.33233
G1 X100.475 Y140.549 E17.47631
G1 X99.777 Y140.54 E17.49953
G1 X98.876 Y140.489 E17.52954
G1 X97.982 Y140.357 E17.5596
G1 X97.104 Y140.148 E17.58962
G1 X96.247 Y139.861 E17.61968
G1 X95.42 Y139.5 E17.64969
G1 X94.627 Y139.067 E17.67974
G1 X93.876 Y138.566 E17.70977
G1 X93.172 Y138 E17.73981
G1 X92.521 Y137.374 E17.76985
G1 X91.928 Y136.693 E17.79988
G1 X91.398 Y135.962 E17.82992
G1 X90.934 Y135.187 E17.85996
G1 X90.54 Y134.374 E17.89001
G1 X90.22 Y133.53 E17.92003
G1 X89.976 Y132.66 E17.95008
G1 X89.81 Y131.772 E17.98013
G1 X89.713 Y130.617 E18.01868
G1 X89.7 Y130.008 E18.03894
G1 X89.701 Y128.425 E18.09159
G1 X89.711 Y127.749 E18.11408
G1 X89.711 Y125.08 E18.20285
G1 X89.7 Y124.237 E18.23089
G1 X89.701 Y122.625 E18.2845
G1 X89.711 Y121.949 E18.30699
G1 X89.711 Y119.28 E18.39576
G1 X89.7 Y118.437 E18.4238
G1 X89.701 Y116.825 E18.47742
G1 X89.711 Y116.149 E18.4999
G1 X89.711 Y113.48 E18.58868
G1 X89.7 Y112.637 E18.61672
G1 X89.701 Y111.025 E18.67033
G1 X89.711 Y110.349 E18.69282
G1 X89.711 Y107.68 E18.78159
G1 X89.7 Y106.837 E18.80963
G1 F2700 E13.80963
;MESH:camera_adapter_1.stl
G0 F6000 X99.235 Y106.726
G0 X106.674 Y104.913
;TYPE:WALL-OUTER
G1 F2700 E18.80963
G1 F933.9 X106.991 Y104.901 E18.82319
G1 F921.3 X107.304 Y104.921 E18.83677
G1 F2700 E13.83677
G0 F6000 X108.036 Y105.086
G0 X108.789 Y105.412
G0 X108.69 Y106.26
G0 X108.624 Y106.961
G0 X108.286 Y107.58
G0 X107.732 Y108.016
G0 X106.321 Y108.409
G0 X104.922 Y106.8
G0 X105.454 Y105.249
G0 X100.418 Y105.168
G0 X100.418 Y106.632
G0 X102.568 Y106.549
G0 X102.647 Y110.981
G0 X100.418 Y110.968
G0 X100.418 Y112.432
G0 X102.739 Y112.536
G0 X102.537 Y116.874
G0 X100.418 Y116.768
G0 X100.418 Y118.232
G0 X102.719 Y118.306
G0 X102.507 Y122.693
G0 X100.418 Y122.568
G0 X100.418 Y124.032
G0 X102.538 Y124.112
G0 X102.538 Y128.288
G0 X100.418 Y128.368
G0 X100.48 Y129.77
G1 F2700 E18.83677
G0 F6000 X100.1 Y130.15
G1 F1200 X135 Y130.15 E19.99755
G1 X135 Y129.1 E20.03248
G1 X135 Y128.05 E20.0674
G1 X133 Y128.05 E20.13392
G1 X132.879 Y128.01 E20.13816
G1 X132.8 Y127.85 E20.14409
G1 X132.801 Y124.526 E20.25465
G1 X132.893 Y124.38 E20.26039
G1 X133 Y124.35 E20.26409
G1 X135 Y124.35 E20.33061
G1 X135 Y122.25 E20.40045
G1 X132.982 Y122.25 E20.46757
G1 X132.843 Y122.175 E20.47282
G1 X132.8 Y122.05 E20.47722
G1 X132.8 Y118.75 E20.58698
G1 X132.837 Y118.633 E20.59106
G1 X133 Y118.55 E20.59714
G1 X135 Y118.55 E20.66367
G1 X135 Y116.45 E20.73351
G1 X132.982 Y116.45 E20.80063
G1 X132.834 Y116.362 E20.80636
G1 X132.8 Y116.176 E20.81265
G1 X132.801 Y112.922 E20.92087
G1 X132.856 Y112.81 E20.92502
G1 X133 Y112.75 E20.93021
G1 X135 Y112.75 E20.99673
G1 X135 Y110.65 E21.06658
G1 X132.982 Y110.65 E21.1337
G1 X132.832 Y110.559 E21.13953
G1 X132.8 Y110.45 E21.14331
G1 X132.801 Y107.123 E21.25397
G1 X132.877 Y106.992 E21.25901
G1 X133 Y106.95 E21.26333
G1 X135 Y106.95 E21.32985
G1 X135 Y104.85 E21.3997
G1 X131.946 Y104.85 E21.50127
G1 F1197 X128.892 Y104.851 E21.6031
G1 F1043.5 X128.562 Y104.909 E21.61592
G1 F907.4 X128.504 Y104.921 E21.61852
G1 F995.9 X128.79 Y105.081 E21.63166
G1 F1165 X129.044 Y105.246 E21.64203
G1 F1200 X129.265 Y105.451 E21.65206
G1 X129.447 Y105.697 E21.66224
G1 X129.57 Y105.971 E21.67223
G1 X129.637 Y106.27 E21.68242
G1 X129.643 Y106.568 E21.69233
G1 X129.595 Y106.842 E21.70158
G1 X129.478 Y107.147 E21.71245
G1 X129.304 Y107.405 E21.7228
G1 X129.096 Y107.614 E21.73261
G1 X128.838 Y107.782 E21.74285
G1 X128.556 Y107.893 E21.75293
G1 X128.257 Y107.945 E21.76302
G1 X127.949 Y107.935 E21.77327
G1 X127.659 Y107.865 E21.78319
G1 X127.381 Y107.736 E21.79339
G1 X127.139 Y107.557 E21.8034
G1 X126.936 Y107.329 E21.81355
G1 X126.785 Y107.07 E21.82352
G1 X126.688 Y106.779 E21.83372
G1 X126.652 Y106.483 E21.84364
G1 X126.677 Y106.169 E21.85412
G1 X126.762 Y105.885 E21.86398
G1 X126.902 Y105.62 E21.87395
G1 X127.092 Y105.387 E21.88395
G1 X127.33 Y105.197 E21.89408
G1 F1165 X127.596 Y105.045 E21.90457
G1 F1010.5 X127.874 Y104.913 E21.91673
G1 F991.7 X127.614 Y104.872 E21.92732
G1 F1140.1 X127.286 Y104.85 E21.93883
G1 F1200 X123.367 Y104.85 E22.06917
G1 X119.448 Y104.85 E22.19952
G1 F1197 X115.529 Y104.85 E22.33019
G1 X111.61 Y104.85 E22.46086
G1 X107.691 Y104.851 E22.59154
G1 F1043.5 X107.362 Y104.909 E22.60431
G1 F907.4 X107.304 Y104.921 E22.60692
G1 F995.9 X107.59 Y105.081 E22.62005
G1 F1165 X107.844 Y105.246 E22.63043
G1 F1200 X108.065 Y105.451 E22.64046
G1 X108.247 Y105.697 E22.65063
G1 X108.37 Y105.971 E22.66062
G1 X108.437 Y106.27 E22.67082
G1 X108.443 Y106.568 E22.68073
G1 X108.389 Y106.871 E22.69097
G1 X108.278 Y107.147 E22.70086
G1 X108.104 Y107.405 E22.71121
G1 X107.896 Y107.614 E22.72102
G1 X107.638 Y107.782 E22.73126
G1 X107.356 Y107.893 E22.74134
G1 X107.057 Y107.945 E22.75143
G1 X106.749 Y107.935 E22.76168
G1 X106.459 Y107.865 E22.7716
G1 X106.181 Y107.736 E22.7818
G1 X105.938 Y107.557 E22.79183
G1 X105.736 Y107.329 E22.80197
G1 X105.585 Y107.07 E22.81194
G1 X105.488 Y106.779 E22.82214
G1 X105.452 Y106.483 E22.83206
G1 X105.477 Y106.169 E22.84253
G1 X105.562 Y105.885 E22.85239
G1 X105.702 Y105.62 E22.86236
G1 X105.892 Y105.387 E22.87236
G1 X106.13 Y105.197 E22.88249
G1 F1165 X106.396 Y105.045 E22.89299
G1 F1010.5 X106.674 Y104.913 E22.90514
G1 F991.7 X106.414 Y104.872 E22.91573
G1 F1140.1 X106.086 Y104.85 E22.92724
G1 F1200 X100.1 Y104.85 E23.12634
G1 X100.1 Y106.95 E23.19618
G1 X102.1 Y106.95 E23.2627
G1 X102.223 Y106.991 E23.26702
G1 X102.301 Y107.15 E23.27291
G1 X102.299 Y110.471 E23.38336
G1 X102.244 Y110.59 E23.38772
G1 X102.1 Y110.65 E23.39291
G1 X100.1 Y110.65 E23.45943
G1 X100.1 Y112.75 E23.52928
G1 X102.1 Y112.75 E23.5958
G1 X102.244 Y112.81 E23.60099
G1 X102.3 Y112.95 E23.606
G1 X102.3 Y116.25 E23.71576
G1 X102.263 Y116.367 E23.71984
G1 X102.1 Y116.45 E23.72593
G1 X100.1 Y116.45 E23.79245
G1 X100.1 Y118.55 E23.86229
G1 X102.1 Y118.55 E23.92881
G1 X102.263 Y118.633 E23.9349
G1 X102.301 Y118.792 E23.94033
G1 X102.299 Y122.077 E24.04959
G1 X102.207 Y122.22 E24.05525
G1 X102.1 Y122.25 E24.05895
G1 X100.1 Y122.25 E24.12547
G1 X100.1 Y124.35 E24.19531
G1 X102.1 Y124.35 E24.26183
G1 X102.257 Y124.425 E24.26762
