;FLAVOR:Marlin
;TIME:1825
;Filament used: 0.793142m
;Layer height: 0.2
;MINX:82.219
;MINY:114.816
;MINZ:0.2
;MAXX:152.791
;MAXY:144.697
;MAXZ:24.6
;Generated with Cura_SteamEngine 5.0.0
M140 S50
M105
M190 S50
M104 S200
M105
M109 S200
M82 ;absolute extrusion mode
; Ender 3 Custom Start G-code
G92 E0 ; Reset Extruder
G28 ; Home all axes
G1 Z2.0 F3000 ; Move Z Axis up little to prevent scratching of Heat Bed
G1 X0.1 Y20 Z0.3 F5000.0 ; Move to start position
G1 X0.1 Y200.0 Z0.3 F1500.0 E15 ; Draw the first line
G1 X0.4 Y200.0 Z0.3 F5000.0 ; Move to side a little
G1 X0.4 Y20 Z0.3 F1500.0 E30 ; Draw the second line
G92 E0 ; Reset Extruder
G1 Z2.0 F3000 ; Move Z Axis up little to prevent scratching of Heat Bed
G1 X5 Y20 Z0.3 F5000.0 ; Move over to prevent blob squish
G92 E0
G92 E0
G1 F2700 E-5
;LAYER_COUNT:123
;LAYER:0
M107
G0 F6000 X88.223 Y117.427 Z0.2
G0 X82.219 Y128.001
;TYPE:SKIRT
G1 F2700 E0
G1 F1200 X82.259 Y127.064 E0.03119
G1 X82.379 Y126.134 E0.06238
G1 X82.577 Y125.217 E0.09358
G1 X82.853 Y124.321 E0.12477
G1 X83.204 Y123.451 E0.15597
G1 X83.476 Y122.894 E0.17659
G1 X83.704 Y122.459 E0.19292
G1 X84.175 Y121.648 E0.22411
G1 X84.505 Y121.16 E0.24371
G1 X84.798 Y120.751 E0.26044
G1 X85.376 Y120.013 E0.29162
G1 X85.717 Y119.632 E0.30863
G1 X86.049 Y119.278 E0.32477
G1 X86.719 Y118.622 E0.35596
G1 X87.103 Y118.293 E0.37277
G1 X87.473 Y117.99 E0.38868
G1 X88.223 Y117.427 E0.41987
G1 X88.67 Y117.136 E0.43761
G1 X89.108 Y116.866 E0.45473
G1 X89.926 Y116.409 E0.48589
G1 X90.415 Y116.177 E0.50389
G1 X90.863 Y115.978 E0.5202
G1 X91.735 Y115.634 E0.55137
G1 X92.245 Y115.472 E0.56917
G1 X92.721 Y115.333 E0.58567
G1 X93.631 Y115.109 E0.61684
G1 X94.196 Y115.01 E0.63591
G1 X94.663 Y114.941 E0.65161
G1 X95.596 Y114.844 E0.68281
G1 X96.076 Y114.825 E0.69879
G1 X96.584 Y114.816 E0.71569
G1 X97.522 Y114.839 E0.7469
G1 X98.039 Y114.886 E0.76416
G1 X98.516 Y114.941 E0.78013
G1 X99.333 Y115.067 E0.80763
G1 X100.425 Y115.277 E0.84461
G1 X102.958 Y115.727 E0.93018
G1 X105.475 Y116.102 E1.01482
G1 X107.946 Y116.4 E1.0976
G1 X110.485 Y116.632 E1.1824
G1 X112.999 Y116.791 E1.26618
G1 X115.519 Y116.878 E1.35005
G1 X117.343 Y116.897 E1.41072
G1 X141.24 Y116.898 E2.20554
G1 X141.939 Y116.908 E2.22879
G1 X142.876 Y116.962 E2.26001
G1 X143.804 Y117.094 E2.29118
G1 X144.718 Y117.306 E2.32239
G1 X145.61 Y117.595 E2.35357
G1 X146.475 Y117.958 E2.38478
G1 X147.305 Y118.394 E2.41596
G1 X148.095 Y118.899 E2.44714
G1 X148.84 Y119.47 E2.47836
G1 X149.533 Y120.102 E2.50956
G1 X150.17 Y120.79 E2.54074
G1 X150.745 Y121.531 E2.57194
G1 X151.256 Y122.317 E2.60312
G1 X151.698 Y123.145 E2.63434
G1 X152.067 Y124.006 E2.66549
G1 X152.362 Y124.897 E2.69671
G1 X152.58 Y125.809 E2.7279
G1 X152.72 Y126.736 E2.75908
G1 X152.778 Y127.594 E2.78768
G1 X152.791 Y128.223 E2.80861
G1 X152.789 Y130.587 E2.88723
G1 X152.774 Y131.318 E2.91155
G1 X152.714 Y132.254 E2.94275
G1 X152.576 Y133.181 E2.97392
G1 X152.359 Y134.094 E3.00513
G1 X152.064 Y134.984 E3.03632
G1 X151.695 Y135.846 E3.0675
G1 X151.254 Y136.674 E3.09871
G1 X150.744 Y137.461 E3.1299
G1 X150.169 Y138.202 E3.16109
G1 X149.533 Y138.891 E3.19228
G1 X148.841 Y139.524 E3.22347
G1 X148.097 Y140.095 E3.25467
G1 X147.307 Y140.6 E3.28585
G1 X146.477 Y141.037 E3.31705
G1 X146.034 Y141.234 E3.33318
G1 X145.156 Y141.602 E3.36484
G1 X144.109 Y142.024 E3.40238
G1 X141.719 Y143.07 E3.48916
G1 X140.365 Y143.689 E3.53867
G1 X139.496 Y144.042 E3.56987
G1 X138.601 Y144.321 E3.60105
G1 X137.685 Y144.521 E3.63223
G1 X136.755 Y144.644 E3.66344
G1 X136.158 Y144.68 E3.68333
G1 X135.461 Y144.697 E3.70652
G1 X108.029 Y144.696 E4.61891
G1 X107.311 Y144.685 E4.64279
G1 X106.539 Y144.646 E4.6685
G1 X103.738 Y144.406 E4.76201
G1 X101.28 Y144.266 E4.84389
G1 X98.706 Y144.194 E4.92954
G1 X96.395 Y144.182 E5.0064
G1 X95.958 Y144.169 E5.02094
G1 X94.649 Y144.052 E5.06465
G1 X94.157 Y143.978 E5.0812
G1 X93.236 Y143.799 E5.11241
G1 X92.705 Y143.658 E5.13068
G1 X92.223 Y143.517 E5.14738
G1 X91.334 Y143.215 E5.17861
G1 X90.803 Y142.993 E5.19775
G1 X90.369 Y142.798 E5.21358
G1 X89.139 Y142.149 E5.25984
G1 X88.717 Y141.891 E5.27629
G1 X87.939 Y141.368 E5.30747
G1 X87.485 Y141.016 E5.32657
G1 X87.098 Y140.699 E5.34321
G1 X86.398 Y140.074 E5.37442
G1 X86.017 Y139.685 E5.39253
G1 X85.693 Y139.337 E5.40835
G1 X84.824 Y138.278 E5.45391
G1 X84.531 Y137.872 E5.47056
G1 X83.854 Y136.811 E5.51243
G1 X83.505 Y136.163 E5.5369
G1 X83.38 Y135.913 E5.5462
G1 X82.997 Y135.057 E5.57739
G1 X82.688 Y134.172 E5.60857
G1 X82.456 Y133.263 E5.63977
G1 X82.301 Y132.338 E5.67097
G1 X82.219 Y130.994 E5.71575
G1 X82.219 Y128.001 E5.8153
G0 F6000 X82.619 Y128.001
G1 F1200 X82.659 Y127.081 E5.84593
G1 X82.779 Y126.168 E5.87656
G1 X82.977 Y125.269 E5.90717
G1 X83.253 Y124.391 E5.93778
G1 X83.604 Y123.54 E5.9684
G1 X83.83 Y123.08 E5.98545
G1 X84.058 Y122.645 E6.00178
G1 X84.521 Y121.849 E6.03241
G1 X84.83 Y121.393 E6.05073
G1 X85.123 Y120.984 E6.06747
G1 X85.691 Y120.259 E6.0981
G1 X86.008 Y119.906 E6.11388
G1 X86.34 Y119.552 E6.13002
G1 X86.999 Y118.908 E6.16067
G1 X87.356 Y118.602 E6.17631
G1 X87.726 Y118.299 E6.19221
G1 X88.463 Y117.747 E6.22284
G1 X88.88 Y117.477 E6.23936
G1 X89.318 Y117.207 E6.25647
G1 X90.122 Y116.758 E6.2871
G1 X90.577 Y116.543 E6.30384
G1 X91.025 Y116.344 E6.32014
G1 X91.882 Y116.007 E6.35077
G1 X92.357 Y115.856 E6.36735
G1 X92.833 Y115.717 E6.38384
G1 X93.727 Y115.498 E6.41446
G1 X94.255 Y115.406 E6.43228
G1 X94.722 Y115.337 E6.44798
G1 X96.083 Y115.225 E6.49341
G1 X96.591 Y115.216 E6.5103
G1 X97.512 Y115.239 E6.54095
G1 X97.993 Y115.284 E6.55701
G1 X98.47 Y115.339 E6.57298
G1 X99.257 Y115.46 E6.59947
G1 X100.345 Y115.669 E6.63632
G1 X102.9 Y116.123 E6.72263
G1 X105.405 Y116.497 E6.80687
G1 X107.929 Y116.801 E6.89142
G1 X110.424 Y117.028 E6.97475
G1 X112.961 Y117.189 E7.0593
G1 X115.542 Y117.279 E7.1452
G1 X117.339 Y117.297 E7.20497
G1 X141.235 Y117.298 E7.99975
G1 X141.934 Y117.308 E8.023
G1 X142.853 Y117.361 E8.05362
G1 X143.764 Y117.494 E8.08424
G1 X144.66 Y117.705 E8.11486
G1 X145.534 Y117.993 E8.14546
G1 X146.38 Y118.356 E8.17608
G1 X147.192 Y118.791 E8.20672
G1 X147.962 Y119.295 E8.23733
G1 X148.686 Y119.864 E8.26796
G1 X149.358 Y120.493 E8.29857
G1 X149.973 Y121.179 E8.32921
G1 X150.526 Y121.915 E8.35983
G1 X151.013 Y122.696 E8.39045
G1 X151.43 Y123.517 E8.42107
G1 X151.775 Y124.371 E8.45171
G1 X152.044 Y125.251 E8.48231
G1 X152.236 Y126.151 E8.51292
G1 X152.349 Y127.065 E8.54355
G1 X152.387 Y127.921 E8.57205
G1 X152.391 Y130.361 E8.65321
G1 X152.374 Y131.309 E8.68474
G1 X152.315 Y132.228 E8.71537
G1 X152.177 Y133.138 E8.74598
G1 X151.96 Y134.033 E8.77661
G1 X151.666 Y134.906 E8.80725
G1 X151.298 Y135.75 E8.83788
G1 X150.858 Y136.558 E8.86848
G1 X150.349 Y137.326 E8.89912
G1 X149.776 Y138.046 E8.92973
G1 X149.142 Y138.714 E8.96036
G1 X148.453 Y139.324 E8.99097
G1 X147.714 Y139.873 E9.02158
G1 X146.929 Y140.355 E9.05222
G1 X145.879 Y140.866 E9.09106
G1 X145.006 Y141.231 E9.12253
G1 X143.948 Y141.658 E9.16048
G1 X141.572 Y142.697 E9.24673
G1 X140.199 Y143.325 E9.29695
G1 X139.346 Y143.671 E9.32756
G1 X138.466 Y143.942 E9.35819
G1 X137.566 Y144.136 E9.38881
G1 X136.652 Y144.251 E9.41945
G1 X135.816 Y144.291 E9.44729
G1 X135.461 Y144.297 E9.4591
G1 X108.036 Y144.296 E10.37126
G1 X107.318 Y144.285 E10.39514
G1 X106.574 Y144.247 E10.41992
G1 X103.796 Y144.009 E10.51265
G1 X101.28 Y143.866 E10.59647
G1 X98.718 Y143.794 E10.68172
G1 X96.407 Y143.782 E10.75858
G1 X95.97 Y143.769 E10.77312
G1 X94.708 Y143.656 E10.81527
G1 X94.216 Y143.582 E10.83181
G1 X93.313 Y143.406 E10.86241
G1 X92.817 Y143.274 E10.87948
G1 X92.335 Y143.133 E10.89619
G1 X91.463 Y142.836 E10.92683
G1 X90.967 Y142.628 E10.94472
G1 X90.533 Y142.433 E10.96054
G1 X89.348 Y141.808 E11.0051
G1 X88.926 Y141.55 E11.02155
G1 X88.162 Y141.036 E11.05218
G1 X87.738 Y140.706 E11.07005
G1 X87.351 Y140.389 E11.08669
G1 X86.665 Y139.775 E11.11731
G1 X86.31 Y139.412 E11.13419
G1 X85.986 Y139.064 E11.15001
G1 X85.149 Y138.044 E11.19389
G1 X84.856 Y137.638 E11.21055
G1 X84.203 Y136.616 E11.25088
G1 X83.863 Y135.984 E11.27475
G1 X83.738 Y135.734 E11.28405
G1 X83.362 Y134.894 E11.31466
G1 X83.061 Y134.024 E11.34528
G1 X82.837 Y133.131 E11.3759
G1 X82.69 Y132.222 E11.40653
G1 X82.619 Y130.994 E11.44744
G1 X82.619 Y128.001 E11.54699
G0 F6000 X83.019 Y128.001
G1 F1200 X83.059 Y127.099 E11.57702
G1 X83.179 Y126.204 E11.60705
G1 X83.377 Y125.323 E11.63708
G1 X83.652 Y124.463 E11.66711
G1 X84.185 Y123.266 E11.71069
G1 X84.413 Y122.831 E11.72703
G1 X84.867 Y122.05 E11.75708
G1 X85.155 Y121.626 E11.77412
G1 X85.448 Y121.217 E11.79086
G1 X86.3 Y120.179 E11.83552
G1 X86.632 Y119.825 E11.85166
G1 X87.609 Y118.911 E11.89616
G1 X87.979 Y118.608 E11.91207
G1 X88.703 Y118.068 E11.94211
G1 X89.09 Y117.817 E11.95745
G1 X89.528 Y117.547 E11.97456
G1 X90.317 Y117.108 E12.0046
G1 X90.739 Y116.908 E12.02013
G1 X91.187 Y116.709 E12.03643
G1 X92.028 Y116.38 E12.06647
G1 X92.469 Y116.24 E12.08186
G1 X92.945 Y116.101 E12.09835
G1 X93.822 Y115.886 E12.12838
G1 X94.313 Y115.802 E12.14495
G1 X94.78 Y115.733 E12.16065
G1 X96.09 Y115.625 E12.20437
G1 X96.598 Y115.616 E12.22127
G1 X97.947 Y115.681 E12.26619
G1 X98.424 Y115.736 E12.28216
G1 X99.182 Y115.852 E12.30766
G1 X100.277 Y116.063 E12.34475
G1 X102.878 Y116.525 E12.43262
G1 X105.335 Y116.891 E12.51524
G1 X107.881 Y117.198 E12.60053
G1 X110.398 Y117.427 E12.6846
G1 X112.954 Y117.589 E12.76978
G1 X115.525 Y117.679 E12.85534
G1 X117.335 Y117.697 E12.91555
G1 X141.229 Y117.698 E13.71026
G1 X141.928 Y117.708 E13.73352
G1 X142.829 Y117.761 E13.76353
G1 X143.723 Y117.893 E13.79359
G1 X144.601 Y118.104 E13.82363
G1 X145.457 Y118.392 E13.85366
G1 X146.284 Y118.754 E13.88369
G1 X147.076 Y119.188 E13.91373
G1 X147.827 Y119.691 E13.94379
G1 X148.53 Y120.258 E13.97383
G1 X149.18 Y120.885 E14.00387
G1 X149.772 Y121.567 E14.03391
G1 X150.301 Y122.298 E14.06392
G1 X150.764 Y123.074 E14.09397
G1 X151.156 Y123.887 E14.12399
G1 X151.475 Y124.732 E14.15403
G1 X151.718 Y125.602 E14.18408
G1 X151.883 Y126.49 E14.21412
G1 X151.978 Y127.617 E14.25173
G1 X151.991 Y128.223 E14.27189
G1 X151.989 Y130.57 E14.34996
G1 X151.974 Y131.301 E14.37427
G1 X151.915 Y132.202 E14.40431
G1 X151.777 Y133.095 E14.43436
G1 X151.561 Y133.972 E14.4644
G1 X151.268 Y134.826 E14.49443
G1 X150.9 Y135.651 E14.52448
G1 X150.461 Y136.44 E14.55451
G1 X149.954 Y137.187 E14.58453
G1 X149.383 Y137.887 E14.61458
G1 X148.752 Y138.533 E14.64461
G1 X148.067 Y139.121 E14.67464
G1 X147.332 Y139.646 E14.70468
G1 X146.553 Y140.104 E14.73474
G1 X145.724 Y140.497 E14.76525
G1 X144.857 Y140.86 E14.79651
G1 X143.805 Y141.284 E14.83424
G1 X141.352 Y142.357 E14.92329
G1 X140.032 Y142.961 E14.97157
G1 X139.195 Y143.3 E15.00161
G1 X138.331 Y143.564 E15.03166
G1 X137.448 Y143.75 E15.06167
G1 X136.131 Y143.88 E15.10568
G1 X135.461 Y143.897 E15.12798
G1 X108.042 Y143.896 E16.03994
G1 X107.324 Y143.885 E16.06382
G1 X106.608 Y143.849 E16.08766
G1 X103.819 Y143.61 E16.18077
G1 X101.278 Y143.466 E16.26542
G1 X98.731 Y143.394 E16.35016
G1 X96.419 Y143.382 E16.42706
G1 X95.982 Y143.369 E16.4416
G1 X94.768 Y143.261 E16.48214
G1 X94.276 Y143.187 E16.49869
G1 X93.39 Y143.013 E16.52872
G1 X92.929 Y142.89 E16.54459
G1 X92.447 Y142.749 E16.56129
G1 X91.592 Y142.457 E16.59134
G1 X91.131 Y142.263 E16.60798
G1 X90.697 Y142.068 E16.6238
G1 X89.557 Y141.466 E16.66668
G1 X89.135 Y141.208 E16.68313
G1 X88.386 Y140.704 E16.71316
G1 X87.992 Y140.397 E16.72977
G1 X87.605 Y140.08 E16.74641
G1 X86.932 Y139.477 E16.77647
G1 X86.603 Y139.139 E16.79215
G1 X86.279 Y138.791 E16.80797
G1 X85.473 Y137.81 E16.8502
G1 X85.18 Y137.404 E16.86685
G1 X84.552 Y136.42 E16.90567
G1 X84.221 Y135.806 E16.92887
G1 X84.096 Y135.556 E16.93817
G1 X83.728 Y134.731 E16.96822
G1 X83.435 Y133.877 E16.99825
G1 X83.218 Y133 E17.0283
G1 X83.08 Y132.107 E17.05835
G1 X83.019 Y130.994 E17.09542
G1 X83.019 Y128.001 E17.19497
G1 F2700 E12.19497
;MESH:camera_adapter_front_3.stl
G0 F6000 X94.892 Y130.341
G0 X97.588 Y131.035
G0 X98.182 Y131.958
G0 X99.306 Y131.284
G0 X99.668 Y130.653
G0 X107.929 Y130.659
G0 X108.071 Y133.117
G1 F2700 E17.19497
G0 F6000 X107.691 Y133.497
;TYPE:WALL-OUTER
G1 F1200 X135.591 Y133.497 E18.12293
G1 X135.592 Y131.076 E18.20345
G1 X135.641 Y130.964 E18.20752
G1 X135.791 Y130.897 E18.21298
G1 X141.591 Y130.897 E18.40589
G1 X141.591 Y129.497 E18.45245
G1 X141.591 Y128.097 E18.49902
G1 X99.928 Y128.097 E19.88474
G1 F1203 X99.808 Y128.057 E19.88893
G1 X99.644 Y127.804 E19.89894
G1 F1200 X99.516 Y127.579 E19.90754
G1 X99.236 Y127.21 E19.92295
G1 X98.907 Y126.875 E19.93857
G1 X98.537 Y126.592 E19.95406
G1 X98.135 Y126.359 E19.96952
G1 X97.685 Y126.172 E19.98572
G1 X97.243 Y126.061 E20.00088
G1 X96.778 Y126.004 E20.01646
G1 X96.313 Y126.01 E20.03193
G1 X95.85 Y126.078 E20.04749
G1 X95.397 Y126.209 E20.06318
G1 X94.97 Y126.398 E20.07871
G1 X94.605 Y126.621 E20.09294
G1 X94.241 Y126.912 E20.10844
G1 X94.032 Y127.125 E20.11836
G1 X93.618 Y127.653 E20.14068
G1 X93.541 Y127.796 E20.14608
G1 X94.502 Y127.797 E20.17804
G1 X94.718 Y127.55 E20.18896
G1 X95.063 Y127.273 E20.20367
G1 X95.354 Y127.105 E20.21485
G1 X95.671 Y126.968 E20.22633
G1 X96.005 Y126.868 E20.23793
G1 X96.321 Y126.812 E20.2486
G1 X96.761 Y126.804 E20.26324
G1 X97.11 Y126.854 E20.27497
G1 X97.429 Y126.94 E20.28596
G1 X97.77 Y127.076 E20.29817
G1 X98.034 Y127.216 E20.3081
G1 X98.389 Y127.484 E20.3229
G1 X98.64 Y127.747 E20.33499
G1 X98.845 Y128.023 E20.34643
G1 X99.032 Y128.36 E20.35924
G1 X99.145 Y128.622 E20.36873
G1 X99.25 Y129.024 E20.38255
G1 X99.291 Y129.472 E20.39752
G1 X99.257 Y129.925 E20.41263
G1 X99.149 Y130.358 E20.42747
G1 X99.031 Y130.636 E20.43751
G1 X98.839 Y130.979 E20.45059
G1 X98.631 Y131.256 E20.46211
G1 X98.418 Y131.486 E20.47253
G1 X98.073 Y131.756 E20.48711
G1 X97.676 Y131.968 E20.50207
G1 X97.417 Y132.059 E20.51121
G1 X97.094 Y132.143 E20.52231
G1 X96.8 Y132.19 E20.53221
G1 X96.353 Y132.186 E20.54708
G1 X95.992 Y132.126 E20.55925
G1 X95.659 Y132.023 E20.57084
G1 X95.343 Y131.883 E20.58234
G1 X95.091 Y131.742 E20.59194
G1 X94.745 Y131.468 E20.60662
G1 X94.506 Y131.201 E20.61854
G1 X93.541 Y131.199 E20.65064
G1 X93.866 Y131.689 E20.67019
G1 X94.129 Y131.977 E20.68316
G1 X94.539 Y132.328 E20.70111
G1 X94.936 Y132.577 E20.7167
G1 X95.194 Y132.696 E20.72615
G1 X95.637 Y132.855 E20.74181
G1 X96.201 Y132.968 E20.76094
G1 X96.74 Y132.991 E20.77888
G1 X97.202 Y132.941 E20.79434
G1 X97.479 Y132.874 E20.80382
G1 X97.921 Y132.725 E20.81933
G1 X98.429 Y132.466 E20.83829
G1 X98.876 Y132.143 E20.85664
G1 X99.21 Y131.814 E20.87223
G1 X99.375 Y131.601 E20.88119
G1 X99.525 Y131.4 E20.88953
G1 X99.754 Y130.998 E20.90492
G1 X99.839 Y130.917 E20.90883
G1 X100.153 Y130.897 E20.91929
G1 X107.491 Y130.897 E21.16335
G1 X107.641 Y130.964 E21.16882
G1 X107.691 Y131.097 E21.17354
G1 X107.691 Y133.497 E21.25337
G0 F6000 X108.091 Y133.097
;TYPE:WALL-INNER
G1 F1200 X135.191 Y133.097 E22.15472
G1 X135.191 Y131.097 E22.22124
G1 X135.234 Y130.873 E22.22882
G1 X135.341 Y130.699 E22.23562
G1 X135.533 Y130.554 E22.24362
G1 X135.791 Y130.497 E22.25241
G1 X141.191 Y130.497 E22.43201
G1 X141.191 Y129.497 E22.46527
G1 X141.191 Y128.497 E22.49853
G1 X99.928 Y128.497 E23.87095
G1 X99.649 Y128.429 E23.8805
G1 F1188.1 X99.425 Y128.234 E23.89048
G1 F1173.6 X99.402 Y128.196 E23.89199
G1 F1182.3 X99.501 Y128.429 E23.90053
G1 F1197 X99.627 Y128.886 E23.91634
G1 F1200 X99.689 Y129.438 E23.93481
G1 X99.655 Y129.957 E23.95211
G1 X99.536 Y130.456 E23.96917
G1 F1185.2 X99.402 Y130.798 E23.98154
G1 F1182.3 X99.578 Y130.607 E23.99031
G1 F1197 X99.928 Y130.497 E24.00255
G1 F1200 X107.491 Y130.497 E24.25409
G1 X107.749 Y130.554 E24.26288
G1 X107.941 Y130.699 E24.27088
G1 X108.048 Y130.873 E24.27768
G1 X108.091 Y131.097 E24.28526
G1 X108.091 Y133.097 E24.35178
G0 F6000 X108.101 Y133.097
G0 X108.029 Y130.559
G0 X99.609 Y130.553
G0 X99.398 Y130.795
G0 X99.402 Y130.798
G1 F1203 X99.307 Y130.986 E24.35877
G1 F1209.1 X99.175 Y131.2 E24.36707
G1 F1182.3 X98.925 Y131.53 E24.38105
G1 F1194 X98.635 Y131.825 E24.39488
G1 F1212.1 X98.231 Y132.122 E24.41139
G1 F1221.4 X97.804 Y132.345 E24.42713
G1 F1203 X97.546 Y132.44 E24.43625
