;FLAVOR:Marlin
;TIME:44621
;Filament used: 36.1748m
;Layer height: 0.2
;MINX:55.671
;MINY:56.5
;MINZ:0.2
;MAXX:179.329
;MAXY:178.5
;MAXZ:30
;Generated with Cura_SteamEngine 5.0.0
M140 S50
M105
M190 S50
M104 S200
M105
M109 S200
M82 ;absolute extrusion mode
; Ender 3 Custom Start G-code
G92 E0 ; Reset Extruder
G28 ; Home all axes
G1 Z2.0 F3000 ; Move Z Axis up little to prevent scratching of Heat Bed
G1 X0.1 Y20 Z0.3 F5000.0 ; Move to start position
G1 X0.1 Y200.0 Z0.3 F1500.0 E15 ; Draw the first line
G1 X0.4 Y200.0 Z0.3 F5000.0 ; Move to side a little
G1 X0.4 Y20 Z0.3 F1500.0 E30 ; Draw the second line
G92 E0 ; Reset Extruder
G1 Z2.0 F3000 ; Move Z Axis up little to prevent scratching of Heat Bed
G1 X5 Y20 Z0.3 F5000.0 ; Move over to prevent blob squish
G92 E0
G92 E0
G1 F2700 E-5
;LAYER_COUNT:150
;LAYER:0
M107
G0 F6000 X58.869 Y59.764 Z0.2
G0 X55.672 Y68.025
;TYPE:SKIRT
G1 F2700 E0
G1 F1200 X55.681 Y67.36 E0.02212
G1 X55.734 Y66.424 E0.0533
G1 X55.866 Y65.495 E0.08451
G1 X56.077 Y64.581 E0.11571
G1 X56.365 Y63.689 E0.14689
G1 X56.728 Y62.824 E0.17809
G1 X57.163 Y61.993 E0.20928
G1 X57.667 Y61.203 E0.24045
G1 X58.237 Y60.458 E0.27165
G1 X58.869 Y59.764 E0.30287
G1 X59.557 Y59.127 E0.33405
G1 X60.297 Y58.551 E0.36524
G1 X61.083 Y58.039 E0.39644
G1 X61.91 Y57.597 E0.42763
G1 X62.772 Y57.227 E0.45883
G1 X63.662 Y56.931 E0.49003
G1 X64.574 Y56.713 E0.52122
G1 X65.501 Y56.572 E0.5524
G1 X66.372 Y56.513 E0.58144
G1 X67.001 Y56.5 E0.60236
G1 X167.622 Y56.5 E3.94903
G1 X168.478 Y56.511 E3.9775
G1 X169.414 Y56.565 E4.00869
G1 X170.342 Y56.697 E4.03986
G1 X171.256 Y56.909 E4.07107
G1 X172.148 Y57.198 E4.10226
G1 X173.013 Y57.561 E4.13346
G1 X173.843 Y57.997 E4.16464
G1 X174.634 Y58.502 E4.19585
G1 X175.378 Y59.073 E4.22705
G1 X176.071 Y59.705 E4.25824
G1 X176.708 Y60.393 E4.28943
G1 X177.283 Y61.134 E4.32062
G1 X177.794 Y61.92 E4.3518
G1 X178.236 Y62.748 E4.38302
G1 X178.605 Y63.61 E4.41421
G1 X178.9 Y64.5 E4.44539
G1 X179.118 Y65.412 E4.47658
G1 X179.258 Y66.34 E4.5078
G1 X179.316 Y67.201 E4.5365
G1 X179.329 Y67.83 E4.55742
G1 X179.328 Y166.9 E7.8525
G1 X179.319 Y167.627 E7.87669
G1 X179.268 Y168.564 E7.9079
G1 X179.136 Y169.492 E7.93907
G1 X178.927 Y170.406 E7.97026
G1 X178.64 Y171.299 E8.00146
G1 X178.278 Y172.165 E8.03267
G1 X177.844 Y172.996 E8.06386
G1 X177.34 Y173.787 E8.09505
G1 X176.771 Y174.532 E8.12623
G1 X176.14 Y175.227 E8.15745
G1 X175.453 Y175.865 E8.18864
G1 X174.714 Y176.442 E8.21982
G1 X173.928 Y176.954 E8.25102
G1 X173.102 Y177.397 E8.28219
G1 X172.24 Y177.769 E8.31342
G1 X171.351 Y178.065 E8.34458
G1 X170.439 Y178.285 E8.37579
G1 X169.512 Y178.426 E8.40697
G1 X168.628 Y178.487 E8.43645
G1 X167.999 Y178.5 E8.45737
G1 X67.22 Y178.499 E11.80929
G1 X66.522 Y178.489 E11.83251
G1 X65.586 Y178.435 E11.8637
G1 X64.658 Y178.303 E11.89487
G1 X63.744 Y178.091 E11.92608
G1 X62.852 Y177.802 E11.95726
G1 X61.987 Y177.439 E11.98847
G1 X61.157 Y177.003 E12.01965
G1 X60.366 Y176.498 E12.05086
G1 X59.622 Y175.927 E12.08205
G1 X58.929 Y175.295 E12.11325
G1 X58.292 Y174.607 E12.14443
G1 X57.717 Y173.866 E12.17563
G1 X57.206 Y173.08 E12.20681
G1 X56.764 Y172.252 E12.23803
G1 X56.395 Y171.39 E12.26922
G1 X56.1 Y170.5 E12.3004
G1 X55.882 Y169.588 E12.33159
G1 X55.742 Y168.66 E12.3628
G1 X55.684 Y167.788 E12.39187
G1 X55.671 Y167.158 E12.41283
G1 X55.672 Y68.025 E15.71001
G0 F6000 X56.072 Y68.031
G1 F1200 X56.081 Y67.366 E15.73213
G1 X56.133 Y66.446 E15.76277
G1 X56.265 Y65.535 E15.79339
G1 X56.476 Y64.639 E15.82401
G1 X56.763 Y63.764 E15.85464
G1 X57.126 Y62.918 E15.88525
G1 X57.56 Y62.106 E15.91588
G1 X58.063 Y61.335 E15.9465
G1 X58.632 Y60.611 E15.97712
G1 X59.26 Y59.939 E16.00771
G1 X59.945 Y59.323 E16.03835
G1 X60.681 Y58.77 E16.06897
G1 X61.462 Y58.282 E16.0996
G1 X62.282 Y57.864 E16.13022
G1 X63.136 Y57.519 E16.16085
G1 X64.016 Y57.249 E16.19147
G1 X64.916 Y57.057 E16.22207
G1 X65.83 Y56.943 E16.25271
G1 X66.383 Y56.913 E16.27113
G1 X67.001 Y56.9 E16.29169
G1 X167.622 Y56.9 E19.63836
G1 X168.472 Y56.911 E19.66663
G1 X169.391 Y56.964 E19.69725
G1 X170.302 Y57.097 E19.72787
G1 X171.198 Y57.308 E19.75848
G1 X172.072 Y57.596 E19.78909
G1 X172.919 Y57.959 E19.81974
G1 X173.73 Y58.394 E19.85035
G1 X174.5 Y58.898 E19.88096
G1 X175.224 Y59.467 E19.91159
G1 X175.896 Y60.097 E19.94222
G1 X176.511 Y60.782 E19.97284
G1 X177.064 Y61.518 E20.00346
G1 X177.551 Y62.299 E20.03407
G1 X177.968 Y63.12 E20.0647
G1 X178.313 Y63.974 E20.09533
G1 X178.582 Y64.854 E20.12594
G1 X178.774 Y65.755 E20.15658
G1 X178.887 Y66.668 E20.18718
G1 X178.925 Y67.532 E20.21594
G1 X178.928 Y166.895 E23.52077
G1 X178.919 Y167.622 E23.54495
G1 X178.868 Y168.541 E23.57556
G1 X178.737 Y169.453 E23.60621
G1 X178.527 Y170.349 E23.63682
G1 X178.241 Y171.224 E23.66744
G1 X177.88 Y172.071 E23.69806
G1 X177.446 Y172.883 E23.72868
G1 X176.944 Y173.655 E23.75931
G1 X176.376 Y174.38 E23.78994
G1 X175.748 Y175.053 E23.82056
G1 X175.064 Y175.669 E23.85117
G1 X174.329 Y176.223 E23.88179
G1 X173.549 Y176.712 E23.91241
G1 X172.729 Y177.131 E23.94303
G1 X171.876 Y177.477 E23.97365
G1 X170.996 Y177.748 E24.00428
G1 X170.096 Y177.941 E24.03489
G1 X169.182 Y178.056 E24.06553
G1 X168.617 Y178.087 E24.08435
G1 X167.999 Y178.1 E24.10491
G1 X67.226 Y178.099 E27.45663
G1 X66.528 Y178.089 E27.47985
G1 X65.609 Y178.036 E27.51047
G1 X64.698 Y177.903 E27.54109
G1 X63.802 Y177.692 E27.57171
G1 X62.928 Y177.404 E27.60231
G1 X62.081 Y177.041 E27.63296
G1 X61.27 Y176.606 E27.66357
G1 X60.5 Y176.102 E27.69418
G1 X59.776 Y175.533 E27.72481
G1 X59.104 Y174.903 E27.75544
G1 X58.489 Y174.218 E27.78606
G1 X57.936 Y173.482 E27.81668
G1 X57.449 Y172.701 E27.84729
G1 X57.032 Y171.88 E27.87792
G1 X56.687 Y171.026 E27.90855
G1 X56.418 Y170.146 E27.93916
G1 X56.226 Y169.245 E27.9698
G1 X56.113 Y168.332 E28.0004
G1 X56.084 Y167.777 E28.01888
G1 X56.071 Y167.158 E28.03948
G1 X56.072 Y68.031 E31.33645
G0 F6000 X56.472 Y68.036
G1 F1200 X56.481 Y67.371 E31.35857
G1 X56.533 Y66.469 E31.38862
G1 X56.665 Y65.576 E31.41865
G1 X56.875 Y64.698 E31.44867
G1 X57.162 Y63.841 E31.47873
G1 X57.524 Y63.014 E31.50876
G1 X57.957 Y62.222 E31.53878
G1 X58.459 Y61.471 E31.56883
G1 X59.026 Y60.767 E31.59889
G1 X59.652 Y60.117 E31.62891
G1 X60.333 Y59.524 E31.65894
G1 X61.065 Y58.994 E31.689
G1 X61.84 Y58.531 E31.71902
G1 X62.653 Y58.138 E31.74906
G1 X63.498 Y57.818 E31.77911
G1 X64.367 Y57.575 E31.80912
G1 X65.255 Y57.409 E31.83917
G1 X66.394 Y57.313 E31.87719
G1 X67.001 Y57.3 E31.89738
G1 X167.622 Y57.3 E35.24405
G1 X168.466 Y57.311 E35.27212
G1 X169.368 Y57.364 E35.30218
G1 X170.261 Y57.496 E35.3322
G1 X171.139 Y57.707 E35.36223
G1 X171.995 Y57.995 E35.39227
G1 X172.822 Y58.357 E35.4223
G1 X173.614 Y58.792 E35.45235
G1 X174.365 Y59.294 E35.4824
G1 X175.068 Y59.861 E35.51244
G1 X175.718 Y60.488 E35.54247
G1 X176.31 Y61.17 E35.57251
G1 X176.84 Y61.901 E35.60254
G1 X177.302 Y62.677 E35.63258
G1 X177.695 Y63.49 E35.66261
G1 X178.013 Y64.335 E35.69264
G1 X178.256 Y65.205 E35.72269
G1 X178.421 Y66.093 E35.75273
G1 X178.516 Y67.223 E35.79044
G1 X178.529 Y67.83 E35.81064
G1 X178.528 Y166.89 E39.10539
G1 X178.519 Y167.617 E39.12957
G1 X178.468 Y168.519 E39.15962
G1 X178.337 Y169.413 E39.18967
G1 X178.128 Y170.291 E39.21969
G1 X177.842 Y171.148 E39.24974
G1 X177.481 Y171.976 E39.27978
G1 X177.049 Y172.768 E39.30979
G1 X176.548 Y173.52 E39.33984
G1 X175.982 Y174.224 E39.36988
G1 X175.357 Y174.875 E39.3999
G1 X174.676 Y175.469 E39.42996
G1 X173.945 Y176 E39.46001
G1 X173.171 Y176.464 E39.49002
G1 X172.358 Y176.858 E39.52007
G1 X171.514 Y177.178 E39.55009
G1 X170.644 Y177.423 E39.58015
G1 X169.757 Y177.589 E39.61017
G1 X168.606 Y177.687 E39.64859
G1 X167.999 Y177.7 E39.66878
G1 X67.232 Y177.699 E43.02031
G1 X66.534 Y177.689 E43.04352
G1 X65.632 Y177.636 E43.07358
G1 X64.739 Y177.504 E43.1036
G1 X63.861 Y177.293 E43.13363
G1 X63.005 Y177.005 E43.16367
G1 X62.178 Y176.643 E43.1937
G1 X61.386 Y176.208 E43.22375
G1 X60.635 Y175.706 E43.2538
G1 X59.932 Y175.139 E43.28384
G1 X59.282 Y174.512 E43.31387
G1 X58.69 Y173.83 E43.34391
G1 X58.16 Y173.099 E43.37394
G1 X57.698 Y172.323 E43.40398
G1 X57.305 Y171.51 E43.43401
G1 X56.987 Y170.665 E43.46404
G1 X56.744 Y169.795 E43.49409
G1 X56.579 Y168.907 E43.52413
G1 X56.484 Y167.766 E43.56221
G1 X56.471 Y167.158 E43.58244
G1 X56.472 Y68.036 E46.87925
G1 F2700 E41.87925
G0 F6000 X70.006 Y71.3
G0 X70.471 Y71.3
G1 F2700 E46.87925
G1 F1200 X93.001 Y71.3 E47.6286
G1 X93 Y163.7 E50.70183
G1 X70.471 Y163.7 E51.45115
G1 X70.471 Y71.3 E54.52439
G0 F6000 X70.071 Y70.9
G1 F1200 X93.401 Y70.9 E55.30035
G1 X93.4 Y164.1 E58.40019
G1 X70.071 Y164.1 E59.17612
G1 X70.071 Y70.9 E62.27596
G0 F6000 X69.671 Y70.5
G1 F1200 X93.801 Y70.5 E63.07853
G1 X93.8 Y164.5 E66.20498
G1 X69.671 Y164.5 E67.00752
G1 X69.671 Y70.5 E70.13397
G0 F6000 X69.271 Y70.1
G1 F1200 X94.201 Y70.1 E70.96314
G1 X94.2 Y164.9 E74.1162
G1 X69.271 Y164.9 E74.94535
G1 X69.271 Y70.1 E78.09841
G0 F6000 X68.871 Y69.7
G1 F1200 X94.601 Y69.7 E78.95419
G1 X94.6 Y165.3 E82.13386
G1 X68.871 Y165.3 E82.98961
G1 X68.871 Y69.7 E86.16928
G0 F6000 X68.471 Y69.3
G1 F1200 X95.001 Y69.3 E87.05167
G1 X95 Y165.7 E90.25795
G1 X68.471 Y165.7 E91.1403
G1 X68.471 Y69.3 E94.34658
G0 F6000 X68.071 Y68.9
G1 F1200 X95.401 Y68.9 E95.25558
G1 X95.4 Y166.1 E98.48847
G1 X68.071 Y166.1 E99.39743
G1 X68.071 Y68.9 E102.63032
G0 F6000 X67.671 Y68.5
G1 F1200 X95.801 Y68.5 E103.56593
G1 X95.8 Y166.5 E106.82542
G1 X67.671 Y166.5 E107.76099
G1 X67.671 Y68.5 E111.02049
G0 F6000 X67.271 Y68.1
G1 F1200 X96.201 Y68.1 E111.9827
G1 X96.2 Y166.9 E115.2688
G1 X67.271 Y166.9 E116.23099
G1 X67.271 Y68.1 E119.51709
G0 F6000 X66.871 Y67.7
G1 F1200 X96.601 Y67.7 E120.50591
G1 X96.6 Y167.3 E123.81862
G1 X66.871 Y167.3 E124.80741
G1 X66.871 Y67.7 E128.12012
G1 F2700 E123.12012
G0 F6000 X96.948 Y66.847
G0 X138.053 Y66.847
G0 X138.4 Y67.7
G1 F2700 E128.12012
G1 F1200 X168.129 Y67.7 E129.10891
G1 X168.129 Y167.3 E132.42162
G1 X138.399 Y167.3 E133.41044
G1 X138.4 Y67.7 E136.72315
G0 F6000 X138.8 Y68.1
G1 F1200 X167.729 Y68.1 E137.68534
G1 X167.729 Y166.9 E140.97144
G1 X138.799 Y166.9 E141.93365
G1 X138.8 Y68.1 E145.21975
G0 F6000 X139.2 Y68.5
G1 F1200 X167.329 Y68.5 E146.15533
G1 X167.329 Y166.5 E149.41482
G1 X139.199 Y166.5 E150.35043
G1 X139.2 Y68.5 E153.60992
G0 F6000 X139.6 Y68.9
G1 F1200 X166.929 Y68.9 E154.51889
G1 X166.929 Y166.1 E157.75177
G1 X139.599 Y166.1 E158.66077
G1 X139.6 Y68.9 E161.89366
G0 F6000 X140 Y69.3
G1 F1200 X166.529 Y69.3 E162.77602
G1 X166.529 Y165.7 E165.98229
G1 X139.999 Y165.7 E166.86469
G1 X140 Y69.3 E170.07096
G0 F6000 X140.4 Y69.7
G1 F1200 X166.129 Y69.7 E170.92671
G1 X166.129 Y165.3 E174.10638
G1 X140.399 Y165.3 E174.96216
G1 X140.4 Y69.7 E178.14183
G0 F6000 X140.8 Y70.1
G1 F1200 X165.729 Y70.1 E178.97098
G1 X165.729 Y164.9 E182.12404
G1 X140.799 Y164.9 E182.95321
G1 X140.8 Y70.1 E186.10627
G0 F6000 X141.2 Y70.5
G1 F1200 X165.329 Y70.5 E186.90881
G1 X165.329 Y164.5 E190.03526
G1 X141.199 Y164.5 E190.83783
G1 X141.2 Y70.5 E193.96428
G0 F6000 X141.6 Y70.9
G1 F1200 X164.929 Y70.9 E194.7402
G1 X164.929 Y164.1 E197.84005
G1 X141.599 Y164.1 E198.61601
G1 X141.6 Y70.9 E201.71585
G0 F6000 X142 Y71.3
G1 F1200 X164.529 Y71.3 E202.46517
G1 X164.529 Y163.7 E205.53841
G1 X141.999 Y163.7 E206.28776
G1 X142 Y71.3 E209.36099
G0 F6000 X142.28 Y71.58
;TYPE:SUPPORT
G1 F1200 X142.279 Y163.42 E212.4156
G1 X164.249 Y163.42 E213.14633
G1 X164.249 Y82.565 E215.83558
G1 X164.249 Y71.58 E216.20094
G1 X142.28 Y71.58 E216.93163
G0 F6000 X142.358 Y72
G1 F1200 X164.168 Y72 E217.65704
G0 F6000 X164 Y71.66
G1 F1200 X164 Y163.34 E220.70633
G0 F6000 X164.168 Y162
G1 F1200 X142.358 Y162 E221.43173
G0 F6000 X142.358 Y160
G1 F1200 X164.168 Y160 E222.15713
G0 F6000 X164.168 Y158
G1 F1200 X142.358 Y158 E222.88254
G0 F6000 X142.358 Y156
G1 F1200 X164.168 Y156 E223.60794
G0 F6000 X164.168 Y154
G1 F1200 X142.358 Y154 E224.33334
G0 F6000 X142.358 Y152
G1 F1200 X164.168 Y152 E225.05875
G0 F6000 X164.168 Y150
G1 F1200 X142.358 Y150 E225.78415
G0 F6000 X142.358 Y148
G1 F1200 X164.168 Y148 E226.50955
G0 F6000 X164.168 Y146
G1 F1200 X142.358 Y146 E227.23496
G0 F6000 X142.358 Y144
G1 F1200 X164.168 Y144 E227.96036
G0 F6000 X164.168 Y142
G1 F1200 X142.358 Y142 E228.68576
G0 F6000 X142.358 Y140
G1 F1200 X164.168 Y140 E229.41117
G0 F6000 X164.168 Y138
G1 F1200 X142.358 Y138 E230.13657
G0 F6000 X142.358 Y136
G1 F1200 X164.168 Y136 E230.86197
G0 F6000 X164.168 Y134
G1 F1200 X142.358 Y134 E231.58738
G0 F6000 X142.358 Y132
G1 F1200 X164.168 Y132 E232.31278
G0 F6000 X164.168 Y130
G1 F1200 X142.358 Y130 E233.03819
G0 F6000 X142.358 Y128
G1 F1200 X164.168 Y128 E233.76359
G0 F6000 X164.168 Y126
G1 F1200 X142.358 Y126 E234.48899
G0 F6000 X142.358 Y124
G1 F1200 X164.168 Y124 E235.2144
G0 F6000 X164.168 Y122
G1 F1200 X142.358 Y122 E235.9398
G0 F6000 X142.358 Y120
G1 F1200 X164.168 Y120 E236.6652
G0 F6000 X164.168 Y118
G1 F1200 X142.358 Y118 E237.39061
G0 F6000 X142.358 Y116
G1 F1200 X164.168 Y116 E238.11601
G0 F6000 X164.168 Y114
G1 F1200 X142.358 Y114 E238.84141
G0 F6000 X142.358 Y112
G1 F1200 X164.168 Y112 E239.56682
G0 F6000 X164.168 Y110
G1 F1200 X142.358 Y110 E240.29222
G0 F6000 X142.358 Y108
G1 F1200 X164.168 Y108 E241.01762
G0 F6000 X164.168 Y106
G1 F1200 X142.358 Y106 E241.74303
G0 F6000 X142.358 Y104
G1 F1200 X164.168 Y104 E242.46843
G0 F6000 X164.168 Y102
G1 F1200 X142.358 Y102 E243.19384
G0 F6000 X142.358 Y100
G1 F1200 X164.168 Y100 E243.91924
G0 F6000 X164.168 Y98
G1 F1200 X142.358 Y98 E244.64464
G0 F6000 X142.358 Y96
G1 F1200 X164.168 Y96 E245.37005
G0 F6000 X164.168 Y94
G1 F1200 X142.358 Y94 E246.09545
G0 F6000 X142.358 Y92
G1 F1200 X164.168 Y92 E246.82085
G0 F6000 X164.168 Y90
G1 F1200 X142.358 Y90 E247.54626
G0 F6000 X142.358 Y88
G1 F1200 X164.168 Y88 E248.27166
G0 F6000 X164.168 Y86
G1 F1200 X142.358 Y86 E248.99706
G0 F6000 X142.358 Y84
G1 F1200 X164.168 Y84 E249.72247
G0 F6000 X164.168 Y82
G1 F1200 X142.358 Y82 E250.44787
G0 F6000 X142.358 Y80
G1 F1200 X164.168 Y80 E251.17327
G0 F6000 X164.168 Y78
G1 F1200 X142.358 Y78 E251.89868
G0 F6000 X142.358 Y76
G1 F1200 X164.168 Y76 E252.62408
G0 F6000 X164.168 Y74
G1 F1200 X142.358 Y74 E253.34948
G1 F2700 E248.34948
G0 F6000 X141.534 Y74
G0 X141.547 Y70.847
G0 X144 Y70.835
G0 X144 Y71.66
G1 F2700 E253.34948
G1 F1200 X144 Y163.34 E256.39877
G0 F6000 X146 Y163.34
G1 F1200 X146 Y71.66 E259.44806
G0 F6000 X148 Y71.66
G1 F1200 X148 Y163.34 E262.49735
G0 F6000 X150 Y163.34
G1 F1200 X150 Y71.66 E265.54664
G0 F6000 X152 Y71.66
G1 F1200 X152 Y163.34 E268.59593
G0 F6000 X154 Y163.34
G1 F1200 X154 Y71.66 E271.64522
G0 F6000 X156 Y71.66
G1 F1200 X156 Y163.34 E274.69451
G0 F6000 X158 Y163.34
G1 F1200 X158 Y71.66 E277.7438
G0 F6000 X160 Y71.66
G1 F1200 X160 Y163.34 E280.79309
G0 F6000 X162 Y163.34
G1 F1200 X162 Y71.66 E283.84238
G1 F2700 E278.84238
G0 F6000 X162 Y70.835
G0 X138.053 Y66.847
G0 X96.948 Y66.847
G0 X93.466 Y71.581
G0 X92.72 Y71.581
G1 F2700 E283.84238
G1 F1200 X70.752 Y71.581 E284.57304
G1 X70.752 Y163.419 E287.62758
G1 X92.72 Y163.419 E288.35824
G1 X92.72 Y82.565 E291.04745
G1 X92.72 Y71.581 E291.41278
G0 F6000 X92.639 Y72
G1 F1200 X70.831 Y72 E292.13812
G0 F6000 X72 Y71.661
G1 F1200 X72 Y163.339 E295.18734
G0 F6000 X70.831 Y161.999
G1 F1200 X92.639 Y161.999 E295.91268
G0 F6000 X92 Y163.339
G1 F1200 X92 Y71.661 E298.9619
G0 F6000 X90 Y71.661
G1 F1200 X90 Y163.339 E302.01112
G0 F6000 X88 Y163.339
G1 F1200 X88 Y71.661 E305.06035
G0 F6000 X86 Y71.661
G1 F1200 X86 Y163.339 E308.10957
G0 F6000 X84 Y163.339
G1 F1200 X84 Y71.661 E311.15879
G0 F6000 X82 Y71.661
G1 F1200 X82 Y163.339 E314.20802
G0 F6000 X80 Y163.339
G1 F1200 X80 Y71.661 E317.25724
G0 F6000 X78 Y71.661
G1 F1200 X78 Y163.339 E320.30646
G0 F6000 X76 Y163.339
G1 F1200 X76 Y71.661 E323.35568
G0 F6000 X74 Y71.661
G1 F1200 X74 Y163.339 E326.40491
G1 F2700 E321.40491
G0 F6000 X74 Y164.165
G0 X70.018 Y164.153
G0 X70.006 Y159.999
G0 X70.831 Y159.999
G1 F2700 E326.40491
G1 F1200 X92.639 Y159.999 E327.13024
G0 F6000 X92.639 Y157.999
G1 F1200 X70.831 Y157.999 E327.85558
G0 F6000 X70.831 Y155.999
G1 F1200 X92.639 Y155.999 E328.58092
G0 F6000 X92.639 Y153.999
G1 F1200 X70.831 Y153.999 E329.30625
G0 F6000 X70.831 Y151.999
